!!!COM: Vivaldi, Antonio
!!!CDT: 1678/03/04/-1741/07/27/
!!!OTL: Concerto in D Major, Op. 6, No. 4
!!!OMV: No. 1
!!!OMD: Allegro
**kern	**dynam	**kern	**kern	**dynam	**kern	**dynam	**kern	**dynam	**kern	**dynam	**kern	**dynam	**kern	**dynam
*staff8	*staff8	*staff7	*staff6	*staff6	*staff5	*staff5	*staff4	*staff4	*staff3	*staff3	*staff2	*staff2	*staff1	*staff1
*Icemba	*Icemba	*Icemba	*Icbass	*Icbass	*Icello	*Icello	*Iviola	*Iviola	*Ivioln	*Ivioln	*Ivioln	*Ivioln	*Ivioln	*Ivioln
*clefF4	*clefF4	*clefG2	*clefF4	*clefF4	*clefF4	*clefF4	*clefC3	*clefC3	*clefG2	*clefG2	*clefG2	*clefG2	*clefG2	*clefG2
*k[f#c#]	*k[f#c#]	*k[f#c#]	*k[f#c#]	*k[f#c#]	*k[f#c#]	*k[f#c#]	*k[f#c#]	*k[f#c#]	*k[f#c#]	*k[f#c#]	*k[f#c#]	*k[f#c#]	*k[f#c#]	*k[f#c#]
*met(C)	*met(C)	*met(C)	*met(C)	*met(C)	*met(C)	*met(C)	*met(C)	*met(C)	*met(C)	*met(C)	*met(C)	*met(C)	*met(C)	*met(C)
*M4/4	*M4/4	*M4/4	*M4/4	*M4/4	*M4/4	*M4/4	*M4/4	*M4/4	*M4/4	*M4/4	*M4/4	*M4/4	*M4/4	*M4/4
*MM120	*MM120	*MM120	*MM120	*MM120	*MM120	*MM120	*MM120	*MM120	*MM120	*MM120	*MM120	*MM120	*MM120	*MM120
=1-	=1-	=1-	=1-	=1-	=1-	=1-	=1-	=1-	=1-	=1-	=1-	=1-	=1-	=1-
16D\LL	f	2r	16D\LL	f	16D\LL	f	8F#/	f	8A/	f	8d/	f	8d/	f
16D\	.	.	16D\	.	16D\	.	.	.	.	.	.	.	.	.
16D\	.	.	16D\	.	16D\	.	8r	.	8r	.	8r	.	8r	.
16D\JJ	.	.	16D\JJ	.	16D\JJ	.	.	.	.	.	.	.	.	.
16D\LL	.	.	16D\LL	.	16D\LL	.	8A/	.	8d/	.	8f#/	.	8f#/	.
16D\	.	.	16D\	.	16D\	.	.	.	.	.	.	.	.	.
16D\	.	.	16D\	.	16D\	.	8r	.	8r	.	8r	.	8r	.
16D\JJ	.	.	16D\JJ	.	16D\JJ	.	.	.	.	.	.	.	.	.
16D\LL	.	2r	16D\LL	.	16D\LL	.	8d\	.	8f#/	.	8a/	.	8a/	.
16D\	.	.	16D\	.	16D\	.	.	.	.	.	.	.	.	.
16D\	.	.	16D\	.	16D\	.	8r	.	8r	.	8r	.	8r	.
16D\JJ	.	.	16D\JJ	.	16D\JJ	.	.	.	.	.	.	.	.	.
16D\LL	.	.	16D\LL	.	16D\LL	.	8F#/	.	8A/	.	8d/	.	8d/	.
16D\	.	.	16D\	.	16D\	.	.	.	.	.	.	.	.	.
16D\	.	.	16D\	.	16D\	.	8r	.	8r	.	8r	.	8r	.
16D\JJ	.	.	16D\JJ	.	16D\JJ	.	.	.	.	.	.	.	.	.
=2	=2	=2	=2	=2	=2	=2	=2	=2	=2	=2	=2	=2	=2	=2
16D\LL	.	2r	16D\LL	.	16D\LL	.	8A/	.	8d/	.	8f#/	.	8f#/	.
16D\	.	.	16D\	.	16D\	.	.	.	.	.	.	.	.	.
16D\	.	.	16D\	.	16D\	.	8r	.	8r	.	8r	.	8r	.
16D\JJ	.	.	16D\JJ	.	16D\JJ	.	.	.	.	.	.	.	.	.
16D\LL	.	.	16D\LL	.	16D\LL	.	8d\	.	8f#/	.	8a/	.	8a/	.
16D\	.	.	16D\	.	16D\	.	.	.	.	.	.	.	.	.
16D\	.	.	16D\	.	16D\	.	8r	.	8r	.	8r	.	8r	.
16D\JJ	.	.	16D\JJ	.	16D\JJ	.	.	.	.	.	.	.	.	.
16D\LL	.	2r	16D\LL	.	16D\LL	.	8f#\	.	8a/	.	8dd\	.	8dd\	.
16D\	.	.	16D\	.	16D\	.	.	.	.	.	.	.	.	.
16D\	.	.	16D\	.	16D\	.	8r	.	8r	.	8r	.	8r	.
16D\JJ	.	.	16D\JJ	.	16D\JJ	.	.	.	.	.	.	.	.	.
16D\LL	.	.	16D\LL	.	16D\LL	.	8d\	.	8f#/	.	8a/	.	8a/	.
16D\	.	.	16D\	.	16D\	.	.	.	.	.	.	.	.	.
16D\	.	.	16D\	.	16D\	.	8r	.	8r	.	8r	.	8r	.
16D\JJ	.	.	16D\JJ	.	16D\JJ	.	.	.	.	.	.	.	.	.
=3	=3	=3	=3	=3	=3	=3	=3	=3	=3	=3	=3	=3	=3	=3
16D\LL	.	2r	16D\LL	.	16D\LL	.	8f#\	.	8a/	.	8dd\	.	8dd\	.
16D\	.	.	16D\	.	16D\	.	.	.	.	.	.	.	.	.
16D\	.	.	16D\	.	16D\	.	8r	.	8r	.	8r	.	8r	.
16D\JJ	.	.	16D\JJ	.	16D\JJ	.	.	.	.	.	.	.	.	.
16D\LL	.	.	16D\LL	.	16D\LL	.	8a\	.	8dd\	.	8ff#\	.	8ff#\	.
16D\	.	.	16D\	.	16D\	.	.	.	.	.	.	.	.	.
16D\	.	.	16D\	.	16D\	.	8r	.	8r	.	8r	.	8r	.
16D\JJ	.	.	16D\JJ	.	16D\JJ	.	.	.	.	.	.	.	.	.
16D\LL	.	2r	16D\LL	.	16D\LL	.	8dd\	.	8ff#\	.	8aa\	.	8aa\	.
16D\	.	.	16D\	.	16D\	.	.	.	.	.	.	.	.	.
16D\	.	.	16D\	.	16D\	.	8r	.	8r	.	8r	.	8r	.
16D\JJ	.	.	16D\JJ	.	16D\JJ	.	.	.	.	.	.	.	.	.
16D\LL	.	.	16D\LL	.	16D\LL	.	8f#\	.	8a/	.	8dd\	.	8dd\	.
16D\	.	.	16D\	.	16D\	.	.	.	.	.	.	.	.	.
16D\	.	.	16D\	.	16D\	.	8r	.	8r	.	8r	.	8r	.
16D\JJ	.	.	16D\JJ	.	16D\JJ	.	.	.	.	.	.	.	.	.
=4	=4	=4	=4	=4	=4	=4	=4	=4	=4	=4	=4	=4	=4	=4
8D\	.	2r	8D\	.	8D\	.	8a\	.	16dd\LL	.	16ff#\LL	.	16ff#\LL	.
.	.	.	.	.	.	.	.	.	16dd\	.	16ff#\	.	16ff#\	.
8r	.	.	8r	.	8r	.	8r	.	16dd\	.	16ff#\	.	16ff#\	.
.	.	.	.	.	.	.	.	.	16dd\JJ	.	16ff#\JJ	.	16ff#\JJ	.
8d\	.	.	8d\	.	8d\	.	8a\	.	16dd\LL	.	16ff#\LL	.	16ff#\LL	.
.	.	.	.	.	.	.	.	.	16dd\	.	16ff#\	.	16ff#\	.
8r	.	.	8r	.	8r	.	8r	.	16dd\	.	16ff#\	.	16ff#\	.
.	.	.	.	.	.	.	.	.	16dd\JJ	.	16ff#\JJ	.	16ff#\JJ	.
16c#\LL	.	2r	16c#\LL	.	16c#\LL	.	16a\LL	.	8ee\	.	8ee\	.	8ee\	.
16c#\	.	.	16c#\	.	16c#\	.	16a\	.	.	.	.	.	.	.
16c#\	.	.	16c#\	.	16c#\	.	16a\	.	8r	.	8r	.	8r	.
16c#\JJ	.	.	16c#\JJ	.	16c#\JJ	.	16a\JJ	.	.	.	.	.	.	.
16c#\LL	.	.	16c#\LL	.	16c#\LL	.	16a\LL	.	8a/	.	8a/	.	8a/	.
16c#\	.	.	16c#\	.	16c#\	.	16a\	.	.	.	.	.	.	.
16c#\	.	.	16c#\	.	16c#\	.	16a\	.	8r	.	8r	.	8r	.
16c#\JJ	.	.	16c#\JJ	.	16c#\JJ	.	16a\JJ	.	.	.	.	.	.	.
=5	=5	=5	=5	=5	=5	=5	=5	=5	=5	=5	=5	=5	=5	=5
8A\	.	2r	8A\	.	8A\	.	8cc#\	.	16ee\LL	.	16gg\LL	.	16gg\LL	.
.	.	.	.	.	.	.	.	.	16ee\	.	16gg\	.	16gg\	.
8r	.	.	8r	.	8r	.	8r	.	16ee\	.	16gg\	.	16gg\	.
.	.	.	.	.	.	.	.	.	16ee\JJ	.	16gg\JJ	.	16gg\JJ	.
8AA/	.	.	8AA/	.	8AA/	.	8cc#\	.	16ee\LL	.	16gg\LL	.	16gg\LL	.
.	.	.	.	.	.	.	.	.	16ee\	.	16gg\	.	16gg\	.
8r	.	.	8r	.	8r	.	8r	.	16ee\	.	16gg\	.	16gg\	.
.	.	.	.	.	.	.	.	.	16ee\JJ	.	16gg\JJ	.	16gg\JJ	.
16d\LL	.	2r	16d\LL	.	16d\LL	.	16a\LL	.	8dd\	.	8ff#\	.	8ff#\	.
16d\	.	.	16d\	.	16d\	.	16a\	.	.	.	.	.	.	.
16d\	.	.	16d\	.	16d\	.	16a\	.	8r	.	8r	.	8r	.
16d\JJ	.	.	16d\JJ	.	16d\JJ	.	16a\JJ	.	.	.	.	.	.	.
16d\LL	.	.	16d\LL	.	16d\LL	.	16a\LL	.	8ff#\	.	8dd\	.	8dd\	.
16d\	.	.	16d\	.	16d\	.	16a\	.	.	.	.	.	.	.
16d\	.	.	16d\	.	16d\	.	16a\	.	8r	.	8r	.	8r	.
16d\JJ	.	.	16d\JJ	.	16d\JJ	.	16a\JJ	.	.	.	.	.	.	.
=6	=6	=6	=6	=6	=6	=6	=6	=6	=6	=6	=6	=6	=6	=6
8D\	.	2r	8D\	.	8D\	.	8f#\	.	16ccc#\LL	.	16ff#\LL	.	16ff#\LL	.
.	.	.	.	.	.	.	.	.	16bb\	.	16ff#\	.	16ff#\	.
8r	.	.	8r	.	8r	.	8r	.	16bb\	.	16ff#\	.	16ff#\	.
.	.	.	.	.	.	.	.	.	16bb\JJ	.	16ff#\JJ	.	16ff#\JJ	.
8d\	.	.	8d\	.	8d\	.	8f#\	.	16bb\LL	.	16ff#\LL	.	16ff#\LL	.
.	.	.	.	.	.	.	.	.	16bb\	.	16ff#\	.	16ff#\	.
8r	.	.	8r	.	8r	.	8r	.	16bb\	.	16ff#\	.	16ff#\	.
.	.	.	.	.	.	.	.	.	16bb\JJ	.	16ff#\JJ	.	16ff#\JJ	.
16c#\LL	.	2r	16c#\LL	.	16c#\LL	.	16g\LL	.	8bb\	.	8ee\	.	8ee\	.
16c#\	.	.	16c#\	.	16c#\	.	16g\	.	.	.	.	.	.	.
16c#\	.	.	16c#\	.	16c#\	.	16g\	.	8r	.	8r	.	8r	.
16c#\JJ	.	.	16c#\JJ	.	16c#\JJ	.	16g\JJ	.	.	.	.	.	.	.
16c#\LL	.	.	16c#\LL	.	16c#\LL	.	16e\LL	.	8aa\	.	8aa\	.	8aa\	.
16c#\	.	.	16c#\	.	16c#\	.	16e\	.	.	.	.	.	.	.
16c#\	.	.	16c#\	.	16c#\	.	16e\	.	8r	.	8r	.	8r	.
16c#\JJ	.	.	16c#\JJ	.	16c#\JJ	.	16e\JJ	.	.	.	.	.	.	.
=7	=7	=7	=7	=7	=7	=7	=7	=7	=7	=7	=7	=7	=7	=7
8B\	.	2r	8B\	.	8B\	.	8f#\	.	16aa\LL	.	16dd\LL	.	16dd\LL	.
.	.	.	.	.	.	.	.	.	16aa\	.	16dd\	.	16dd\	.
8r	.	.	8r	.	8r	.	8r	.	16aa\	.	16dd\	.	16dd\	.
.	.	.	.	.	.	.	.	.	16aa\JJ	.	16dd\JJ	.	16dd\JJ	.
8BB/	.	.	8BB/	.	8BB/	.	8d\	.	16gg\LL	.	16dd\LL	.	16dd\LL	.
.	.	.	.	.	.	.	.	.	16gg\	.	16dd\	.	16dd\	.
8r	.	.	8r	.	8r	.	8r	.	16gg\	.	16dd\	.	16dd\	.
.	.	.	.	.	.	.	.	.	16gg\JJ	.	16dd\JJ	.	16dd\JJ	.
16A\LL	.	2r	16A\LL	.	16A\LL	.	16e\LL	.	8gg\	.	8cc#\	.	8cc#\	.
16A\	.	.	16A\	.	16A\	.	16e\	.	.	.	.	.	.	.
16A\	.	.	16A\	.	16A\	.	16e\	.	8r	.	8r	.	8r	.
16A\JJ	.	.	16A\JJ	.	16A\JJ	.	16e\JJ	.	.	.	.	.	.	.
16A\LL	.	.	16A\LL	.	16A\LL	.	16c#\LL	.	8ff#\	.	8ff#\	.	8ff#\	.
16A\	.	.	16A\	.	16A\	.	16c#\	.	.	.	.	.	.	.
16A\	.	.	16A\	.	16A\	.	16c#\	.	8r	.	8r	.	8r	.
16A\JJ	.	.	16A\JJ	.	16A\JJ	.	16c#\JJ	.	.	.	.	.	.	.
=8	=8	=8	=8	=8	=8	=8	=8	=8	=8	=8	=8	=8	=8	=8
8G\	.	2r	8G\	.	8G\	.	8d\	.	16ff#\LL	.	16b\LL	.	16b\LL	.
.	.	.	.	.	.	.	.	.	16ff#\	.	16b\	.	16b\	.
8r	.	.	8r	.	8r	.	8r	.	16ff#\	.	16b\	.	16b\	.
.	.	.	.	.	.	.	.	.	16ff#\JJ	.	16b\JJ	.	16b\JJ	.
8GG/	.	.	8GG/	.	8GG/	.	8B/	.	16ee\LL	.	16b\LL	.	16b\LL	.
.	.	.	.	.	.	.	.	.	16ee\	.	16b\	.	16b\	.
8r	.	.	8r	.	8r	.	8r	.	16ee\	.	16b\	.	16b\	.
.	.	.	.	.	.	.	.	.	16ee\JJ	.	16b\JJ	.	16b\JJ	.
16F#\LL	.	2r	16F#\LL	.	16F#\LL	.	16c#\LL	.	8ee\	.	8a/	.	8a/	.
16F#\	.	.	16F#\	.	16F#\	.	16c#\	.	.	.	.	.	.	.
16F#\	.	.	16F#\	.	16F#\	.	16c#\	.	8r	.	8r	.	8r	.
16F#\JJ	.	.	16F#\JJ	.	16F#\JJ	.	16c#\JJ	.	.	.	.	.	.	.
16F#\LL	.	.	16F#\LL	.	16F#\LL	.	16A/LL	.	8dd\	.	8dd\	.	8dd\	.
16F#\	.	.	16F#\	.	16F#\	.	16A/	.	.	.	.	.	.	.
16F#\	.	.	16F#\	.	16F#\	.	16A/	.	8r	.	8r	.	8r	.
16F#\JJ	.	.	16F#\JJ	.	16F#\JJ	.	16A/JJ	.	.	.	.	.	.	.
=9	=9	=9	=9	=9	=9	=9	=9	=9	=9	=9	=9	=9	=9	=9
8E\	.	2r	8E\	.	8E\	.	8B/	.	16dd\LL	.	16g/LL	.	16g/LL	.
.	.	.	.	.	.	.	.	.	16dd\	.	16g/	.	16g/	.
8r	.	.	8r	.	8r	.	8r	.	16dd\	.	16g/	.	16g/	.
.	.	.	.	.	.	.	.	.	16dd\JJ	.	16g/JJ	.	16g/JJ	.
8AA/	.	.	8AA/	.	8AA/	.	8A/	.	16cc#\LL	.	16g/LL	.	16g/LL	.
.	.	.	.	.	.	.	.	.	16cc#\	.	16g/	.	16g/	.
8r	.	.	8r	.	8r	.	8r	.	16cc#\	.	16g/	.	16g/	.
.	.	.	.	.	.	.	.	.	16cc#\JJ	.	16g/JJ	.	16g/JJ	.
16D\LL	.	2r	16D\LL	.	16D\LL	.	16A/LL	.	4dd\	.	4f#/	.	4f#/	.
16D\	.	.	16D\	.	16D\	.	16A/	.	.	.	.	.	.	.
16D\	.	.	16D\	.	16D\	.	16A/	.	.	.	.	.	.	.
16D\JJ	.	.	16D\JJ	.	16D\JJ	.	16A/JJ	.	.	.	.	.	.	.
16D\LL	.	.	16D\LL	.	16D\LL	.	16A/LL	.	8r	.	8r	.	8r	.
16D\	.	.	16D\	.	16D\	.	16A/	.	.	.	.	.	.	.
16D\	.	.	16D\	.	16D\	.	16A/	.	8f#/	.	8d/	.	8d/	.
16D\JJ	.	.	16D\JJ	.	16D\JJ	.	16A/JJ	.	.	.	.	.	.	.
=10	=10	=10	=10	=10	=10	=10	=10	=10	=10	=10	=10	=10	=10	=10
16D\LL	.	2r	16D\LL	.	16D\LL	.	16A/LL	.	8d/L	.	8f#\L	.	8f#\L	.
16D\	.	.	16D\	.	16D\	.	16A/	.	.	.	.	.	.	.
16D\	.	.	16D\	.	16D\	.	16A/	.	8f#/	.	8a\	.	8a\	.
16D\JJ	.	.	16D\JJ	.	16D\JJ	.	16A/JJ	.	.	.	.	.	.	.
16D\LL	.	.	16D\LL	.	16D\LL	.	16A/LL	.	8a/	.	8dd\	.	8dd\	.
16D\	.	.	16D\	.	16D\	.	16A/	.	.	.	.	.	.	.
16D\	.	.	16D\	.	16D\	.	16A/	.	8dd/J	.	8ff#\J	.	8ff#\J	.
16D\JJ	.	.	16D\JJ	.	16D\JJ	.	16A/JJ	.	.	.	.	.	.	.
16D\LL	.	2r	16D\LL	.	16D\LL	.	16A/LL	.	8ff#\L	.	8aa\L	.	8aa\L	.
16D\	.	.	16D\	.	16D\	.	16A/	.	.	.	.	.	.	.
16D\	.	.	16D\	.	16D\	.	16A/	.	8dd\	.	8ff#\	.	8ff#\	.
16D\JJ	.	.	16D\JJ	.	16D\JJ	.	16A/JJ	.	.	.	.	.	.	.
16D\LL	.	.	16D\LL	.	16D\LL	.	16A/LL	.	8a\	.	8dd\	.	8dd\	.
16D\	.	.	16D\	.	16D\	.	16A/	.	.	.	.	.	.	.
16D\	.	.	16D\	.	16D\	.	16A/	.	8f#\J	.	8a\J	.	8a\J	.
16D\JJ	.	.	16D\JJ	.	16D\JJ	.	16A/JJ	.	.	.	.	.	.	.
=11	=11	=11	=11	=11	=11	=11	=11	=11	=11	=11	=11	=11	=11	=11
16D\LL	.	2r	16D\LL	.	16D\LL	.	16A/LL	.	8d/L	.	8f#/L	.	8f#/L	.
16D\	.	.	16D\	.	16D\	.	16A/	.	.	.	.	.	.	.
16D\	.	.	16D\	.	16D\	.	16A/	.	8f#/	.	8d/	.	8d/	.
16D\JJ	.	.	16D\JJ	.	16D\JJ	.	16A/JJ	.	.	.	.	.	.	.
16D\LL	.	.	16D\LL	.	16D\LL	.	16f#\LL	.	8a/	.	8f#/	.	8f#/	.
16D\	.	.	16D\	.	16D\	.	16f#\	.	.	.	.	.	.	.
16D\	.	.	16D\	.	16D\	.	16f#\	.	8b/J	.	8g#/J	.	8g#/J	.
16D\JJ	.	.	16D\JJ	.	16D\JJ	.	16f#\JJ	.	.	.	.	.	.	.
16C#/LL	.	2r	16C#/LL	.	16C#/LL	.	16e\LL	.	4cc#\	.	4a/	.	4a/	.
16C#/	.	.	16C#/	.	16C#/	.	16e\	.	.	.	.	.	.	.
16C#/	.	.	16C#/	.	16C#/	.	16e\	.	.	.	.	.	.	.
16C#/JJ	.	.	16C#/JJ	.	16C#/JJ	.	16e\JJ	.	.	.	.	.	.	.
16AA/LL	.	.	16AA/LL	.	16AA/LL	.	16c#\LL	.	16r	.	16r	.	16r	.
16AA/	.	.	16AA/	.	16AA/	.	16c#\	.	16aa\LL	.	16aa\LL	.	16aa\LL	.
16AA/	.	.	16AA/	.	16AA/	.	16c#\	.	16aa\	.	16aa\	.	16aa\	.
16AA/JJ	.	.	16AA/JJ	.	16AA/JJ	.	16c#\JJ	.	16aa\JJ	.	16aa\JJ	.	16aa\JJ	.
=12	=12	=12	=12	=12	=12	=12	=12	=12	=12	=12	=12	=12	=12	=12
16BB/LL	.	2r	16BB/LL	.	16BB/LL	.	16d\LL	.	16aa\LL	.	16aa\LL	.	16aa\LL	.
16BB/	.	.	16BB/	.	16BB/	.	16d\	.	16aa\	.	16aa\	.	16aa\	.
16BB/	.	.	16BB/	.	16BB/	.	16d\	.	16aa\	.	16aa\	.	16aa\	.
16BB/JJ	.	.	16BB/JJ	.	16BB/JJ	.	16d\JJ	.	16aa\JJ	.	16aa\JJ	.	16aa\JJ	.
16C#/LL	.	.	16C#/LL	.	16C#/LL	.	16e\LL	.	16aa\LL	.	16aa\LL	.	16aa\LL	.
16C#/	.	.	16C#/	.	16C#/	.	16e\	.	16aa\	.	16aa\	.	16aa\	.
16C#/	.	.	16C#/	.	16C#/	.	16e\	.	16aa\	.	16aa\	.	16aa\	.
16C#/JJ	.	.	16C#/JJ	.	16C#/JJ	.	16e\JJ	.	16aa\JJ	.	16aa\JJ	.	16aa\JJ	.
16D\LL	.	2r	16D\LL	.	16D\LL	.	16f#\LL	.	16aa\LL	.	16aa\LL	.	16aa\LL	.
16D\	.	.	16D\	.	16D\	.	16f#\	.	16aa\	.	16aa\	.	16aa\	.
16D\	.	.	16D\	.	16D\	.	16f#\	.	16aa\	.	16aa\	.	16aa\	.
16D\JJ	.	.	16D\JJ	.	16D\JJ	.	16f#\JJ	.	16aa\JJ	.	16aa\JJ	.	16aa\JJ	.
16F#\LL	.	.	16F#\LL	.	16F#\LL	.	16a\LL	.	16ff#\LL	.	16ddd\LL	.	16ddd\LL	.
16F#\	.	.	16F#\	.	16F#\	.	16a\	.	16ff#\	.	16ddd\	.	16ddd\	.
16F#\	.	.	16F#\	.	16F#\	.	16a\	.	16ff#\	.	16ddd\	.	16ddd\	.
16F#\JJ	.	.	16F#\JJ	.	16F#\JJ	.	16a\JJ	.	16ff#\JJ	.	16ddd\JJ	.	16ddd\JJ	.
=13	=13	=13	=13	=13	=13	=13	=13	=13	=13	=13	=13	=13	=13	=13
16G\LL	.	2r	16G\LL	.	16G\LL	.	16b\LL	.	16ee\LL	.	16ddd\LL	.	16ddd\LL	.
16G\	.	.	16G\	.	16G\	.	16b\	.	16ee\	.	16ddd\	.	16ddd\	.
16G\	.	.	16G\	.	16G\	.	16b\	.	16ee\	.	16ddd\	.	16ddd\	.
16G\JJ	.	.	16G\JJ	.	16G\JJ	.	16b\JJ	.	16ee\JJ	.	16ddd\JJ	.	16ddd\JJ	.
16A\LL	.	.	16A\LL	.	16A\LL	.	16a\LL	.	16ee\LL	.	16ccc#\LL	.	16ccc#\LL	.
16A\	.	.	16A\	.	16A\	.	16a\	.	16ee\	.	16ccc#\	.	16ccc#\	.
16A\	.	.	16A\	.	16A\	.	16a\	.	16ee\	.	16ccc#\	.	16ccc#\	.
16A\JJ	.	.	16A\JJ	.	16A\JJ	.	16a\JJ	.	16ee\JJ	.	16ccc#\JJ	.	16ccc#\JJ	.
4D\	.	2r	4D\	.	4D\	.	4a\	.	4ff#\	.	4ddd\	.	4ddd\	.
16FF#/LL	.	.	16FF#/LL	.	16FF#/LL	.	16A/LL	.	16f#/LL	.	16dd\LL	.	16dd\LL	.
16FF#/	.	.	16FF#/	.	16FF#/	.	16A/	.	16f#/	.	16dd\	.	16dd\	.
16FF#/	.	.	16FF#/	.	16FF#/	.	16A/	.	16f#/	.	16dd\	.	16dd\	.
16FF#/JJ	.	.	16FF#/JJ	.	16FF#/JJ	.	16A/JJ	.	16f#/JJ	.	16dd\JJ	.	16dd\JJ	.
=14	=14	=14	=14	=14	=14	=14	=14	=14	=14	=14	=14	=14	=14	=14
16GG/LL	.	2r	16GG/LL	.	16GG/LL	.	16B/LL	.	16e/LL	.	16dd\LL	.	16dd\LL	.
16GG/	.	.	16GG/	.	16GG/	.	16B/	.	16e/	.	16dd\	.	16dd\	.
16GG/	.	.	16GG/	.	16GG/	.	16B/	.	16e/	.	16dd\	.	16dd\	.
16GG/JJ	.	.	16GG/JJ	.	16GG/JJ	.	16B/JJ	.	16e/JJ	.	16dd\JJ	.	16dd\JJ	.
16AA/LL	.	.	16AA/LL	.	16AA/LL	.	16A/LL	.	16e/LL	.	16cc#\LL	.	16cc#\LL	.
16AA/	.	.	16AA/	.	16AA/	.	16A/	.	16e/	.	16cc#\	.	16cc#\	.
16AA/	.	.	16AA/	.	16AA/	.	16A/	.	16e/	.	16cc#\	.	16cc#\	.
16AA/JJ	.	.	16AA/JJ	.	16AA/JJ	.	16A/JJ	.	16e/JJ	.	16cc#\JJ	.	16cc#\JJ	.
*	*	*	*	*	*^	*	*	*	*	*	*	*	*	*
8D\L	.	2r	4D\	.	4D\	8D/L	.	4A/	.	4f#/	.	4dd\	.	16ff#\LL	.
.	.	.	.	.	.	.	.	.	.	.	.	.	.	16dd\	.
8E\	.	.	.	.	.	8E/	.	.	.	.	.	.	.	16a\	.
.	.	.	.	.	.	.	.	.	.	.	.	.	.	16ff#\JJ	.
8F#\	.	.	4r	.	4r	8F#/	.	4r	.	4r	.	4r	.	16ff#\LL	.
.	.	.	.	.	.	.	.	.	.	.	.	.	.	16dd\	.
8D\J	.	.	.	.	.	8D/J	.	.	.	.	.	.	.	16a\	.
.	.	.	.	.	.	.	.	.	.	.	.	.	.	16ff#\JJ	.
*	*	*	*	*	*v	*v	*	*	*	*	*	*	*	*	*
=15	=15	=15	=15	=15	=15	=15	=15	=15	=15	=15	=15	=15	=15	=15
4AA/	.	2r	1r	.	4AA/	.	1r	.	1r	.	1r	.	16ee\LL	.
.	.	.	.	.	.	.	.	.	.	.	.	.	16cc#\	.
.	.	.	.	.	.	.	.	.	.	.	.	.	16a\	.
.	.	.	.	.	.	.	.	.	.	.	.	.	16ee\JJ	.
8r	.	.	.	.	8r	.	.	.	.	.	.	.	16ee\LL	.
.	.	.	.	.	.	.	.	.	.	.	.	.	16cc#\	.
8A\	.	.	.	.	8A\	.	.	.	.	.	.	.	16a\	.
.	.	.	.	.	.	.	.	.	.	.	.	.	16ee\JJ	.
8D\L	.	2r	.	.	8D\L	.	.	.	.	.	.	.	16ff#\LL	.
.	.	.	.	.	.	.	.	.	.	.	.	.	16dd\	.
8E\	.	.	.	.	8E\	.	.	.	.	.	.	.	16a\	.
.	.	.	.	.	.	.	.	.	.	.	.	.	16ff#\JJ	.
8F#\	.	.	.	.	8F#\	.	.	.	.	.	.	.	16ff#\LL	.
.	.	.	.	.	.	.	.	.	.	.	.	.	16dd\	.
8D\J	.	.	.	.	8D\J	.	.	.	.	.	.	.	16a\	.
.	.	.	.	.	.	.	.	.	.	.	.	.	16ff#\JJ	.
=16	=16	=16	=16	=16	=16	=16	=16	=16	=16	=16	=16	=16	=16	=16
4AA/	.	2r	1r	.	4AA/	.	1r	.	1r	.	1r	.	16ee\LL	.
.	.	.	.	.	.	.	.	.	.	.	.	.	16cc#\	.
.	.	.	.	.	.	.	.	.	.	.	.	.	16a\	.
.	.	.	.	.	.	.	.	.	.	.	.	.	16ee\JJ	.
8r	.	.	.	.	8r	.	.	.	.	.	.	.	16ee\LL	.
.	.	.	.	.	.	.	.	.	.	.	.	.	16cc#\	.
8A\	.	.	.	.	8A\	.	.	.	.	.	.	.	16a\	.
.	.	.	.	.	.	.	.	.	.	.	.	.	16ee\JJ	.
8D\L	.	2r	.	.	8D\L	.	.	.	.	.	.	.	16ff#\LL	.
.	.	.	.	.	.	.	.	.	.	.	.	.	16dd\	.
8E\	.	.	.	.	8E\	.	.	.	.	.	.	.	16a\	.
.	.	.	.	.	.	.	.	.	.	.	.	.	16ff#\JJ	.
8F#\	.	.	.	.	8F#\	.	.	.	.	.	.	.	16ff#\LL	.
.	.	.	.	.	.	.	.	.	.	.	.	.	16dd\	.
8D\J	.	.	.	.	8D\J	.	.	.	.	.	.	.	16a\	.
.	.	.	.	.	.	.	.	.	.	.	.	.	16ff#\JJ	.
=17	=17	=17	=17	=17	=17	=17	=17	=17	=17	=17	=17	=17	=17	=17
4AA/	.	2r	1r	.	4AA/	.	1r	.	1r	.	1r	.	8ee\L	.
.	.	.	.	.	.	.	.	.	.	.	.	.	8a\J	.
8r	.	.	.	.	8r	.	.	.	.	.	.	.	4A/	.
8A\	.	.	.	.	8A\	.	.	.	.	.	.	.	.	.
8F#\L	.	2r	.	.	8F#\L	.	.	.	.	.	.	.	16aa\LL	.
.	.	.	.	.	.	.	.	.	.	.	.	.	16ff#\	.
8E\	.	.	.	.	8E\	.	.	.	.	.	.	.	16dd\	.
.	.	.	.	.	.	.	.	.	.	.	.	.	16aa\JJ	.
8D\	.	.	.	.	8D\	.	.	.	.	.	.	.	16aa\LL	.
.	.	.	.	.	.	.	.	.	.	.	.	.	16ff#\	.
8F#\J	.	.	.	.	8F#\J	.	.	.	.	.	.	.	16dd\	.
.	.	.	.	.	.	.	.	.	.	.	.	.	16aa\JJ	.
=18	=18	=18	=18	=18	=18	=18	=18	=18	=18	=18	=18	=18	=18	=18
8G\L	.	2r	1r	.	8G\L	.	1r	.	1r	.	1r	.	16bb\LL	.
.	.	.	.	.	.	.	.	.	.	.	.	.	16gg\	.
8F#\	.	.	.	.	8F#\	.	.	.	.	.	.	.	16dd\	.
.	.	.	.	.	.	.	.	.	.	.	.	.	16bb\JJ	.
8G\	.	.	.	.	8G\	.	.	.	.	.	.	.	16bb\LL	.
.	.	.	.	.	.	.	.	.	.	.	.	.	16gg\	.
8GG\J	.	.	.	.	8GG\J	.	.	.	.	.	.	.	16dd\	.
.	.	.	.	.	.	.	.	.	.	.	.	.	16bb\JJ	.
8F#\L	.	2r	.	.	8F#\L	.	.	.	.	.	.	.	16aa\LL	.
.	.	.	.	.	.	.	.	.	.	.	.	.	16ff#\	.
8E\	.	.	.	.	8E\	.	.	.	.	.	.	.	16dd\	.
.	.	.	.	.	.	.	.	.	.	.	.	.	16aa\JJ	.
8D\	.	.	.	.	8D\	.	.	.	.	.	.	.	16aa\LL	.
.	.	.	.	.	.	.	.	.	.	.	.	.	16ff#\	.
8F#\J	.	.	.	.	8F#\J	.	.	.	.	.	.	.	16dd\	.
.	.	.	.	.	.	.	.	.	.	.	.	.	16aa\JJ	.
=19	=19	=19	=19	=19	=19	=19	=19	=19	=19	=19	=19	=19	=19	=19
8G\L	.	2r	1r	.	8G\L	.	1r	.	1r	.	1r	.	16bb\LL	.
.	.	.	.	.	.	.	.	.	.	.	.	.	16gg\	.
8F#\	.	.	.	.	8F#\	.	.	.	.	.	.	.	16dd\	.
.	.	.	.	.	.	.	.	.	.	.	.	.	16bb\JJ	.
8G\	.	.	.	.	8G\	.	.	.	.	.	.	.	16bb\LL	.
.	.	.	.	.	.	.	.	.	.	.	.	.	16gg\	.
8GG\J	.	.	.	.	8GG\J	.	.	.	.	.	.	.	16dd\	.
.	.	.	.	.	.	.	.	.	.	.	.	.	16bb\JJ	.
8G#\L	.	2r	.	.	8G#\L	.	.	.	.	.	.	.	16bb\LL	.
.	.	.	.	.	.	.	.	.	.	.	.	.	16gg#\	.
8F#\	.	.	.	.	8F#\	.	.	.	.	.	.	.	16ee\	.
.	.	.	.	.	.	.	.	.	.	.	.	.	16bb\JJ	.
8E\	.	.	.	.	8E\	.	.	.	.	.	.	.	16bb\LL	.
.	.	.	.	.	.	.	.	.	.	.	.	.	16gg#\	.
8G#\J	.	.	.	.	8G#\J	.	.	.	.	.	.	.	16ee\	.
.	.	.	.	.	.	.	.	.	.	.	.	.	16bb\JJ	.
=20	=20	=20	=20	=20	=20	=20	=20	=20	=20	=20	=20	=20	=20	=20
8A\L	.	2r	1r	.	8A\L	.	1r	.	1r	.	1r	.	16ccc#\LL	.
.	.	.	.	.	.	.	.	.	.	.	.	.	16aa\	.
8G#\	.	.	.	.	8G#\	.	.	.	.	.	.	.	16ee\	.
.	.	.	.	.	.	.	.	.	.	.	.	.	16ccc#\JJ	.
8A\	.	.	.	.	8A\	.	.	.	.	.	.	.	16ccc#\LL	.
.	.	.	.	.	.	.	.	.	.	.	.	.	16aa\	.
8AA\J	.	.	.	.	8AA\J	.	.	.	.	.	.	.	16ee\	.
.	.	.	.	.	.	.	.	.	.	.	.	.	16ccc#\JJ	.
8G#\L	.	2r	.	.	8G#\L	.	.	.	.	.	.	.	16bb\LL	.
.	.	.	.	.	.	.	.	.	.	.	.	.	16gg#\	.
8F#\	.	.	.	.	8F#\	.	.	.	.	.	.	.	16ee\	.
.	.	.	.	.	.	.	.	.	.	.	.	.	16bb\JJ	.
8E\	.	.	.	.	8E\	.	.	.	.	.	.	.	16bb\LL	.
.	.	.	.	.	.	.	.	.	.	.	.	.	16gg#\	.
8G#\J	.	.	.	.	8G#\J	.	.	.	.	.	.	.	16ee\	.
.	.	.	.	.	.	.	.	.	.	.	.	.	16bb\JJ	.
=21	=21	=21	=21	=21	=21	=21	=21	=21	=21	=21	=21	=21	=21	=21
8A\L	.	2r	1r	.	8A\L	.	1r	.	1r	.	1r	.	16ccc#\LL	.
.	.	.	.	.	.	.	.	.	.	.	.	.	16aa\	.
8G#\	.	.	.	.	8G#\	.	.	.	.	.	.	.	16ee\	.
.	.	.	.	.	.	.	.	.	.	.	.	.	16ccc#\JJ	.
8A\	.	.	.	.	8A\	.	.	.	.	.	.	.	16ccc#\LL	.
.	.	.	.	.	.	.	.	.	.	.	.	.	16aa\	.
8AA\J	.	.	.	.	8AA\J	.	.	.	.	.	.	.	16ee\	.
.	.	.	.	.	.	.	.	.	.	.	.	.	16ccc#\JJ	.
8A#\L	.	2r	.	.	8A#\L	.	.	.	.	.	.	.	16ccc#\LL	.
.	.	.	.	.	.	.	.	.	.	.	.	.	16aa#\	.
8G#\	.	.	.	.	8G#\	.	.	.	.	.	.	.	16ff#\	.
.	.	.	.	.	.	.	.	.	.	.	.	.	16ccc#\JJ	.
8F#\	.	.	.	.	8F#\	.	.	.	.	.	.	.	16ccc#\LL	.
.	.	.	.	.	.	.	.	.	.	.	.	.	16aa#\	.
8A#\J	.	.	.	.	8A#\J	.	.	.	.	.	.	.	16ff#\	.
.	.	.	.	.	.	.	.	.	.	.	.	.	16ccc#\JJ	.
=22	=22	=22	=22	=22	=22	=22	=22	=22	=22	=22	=22	=22	=22	=22
8B\L	.	2r	1r	.	8B\L	.	1r	.	1r	.	1r	.	16ddd\LL	.
.	.	.	.	.	.	.	.	.	.	.	.	.	16bb\	.
8A#\	.	.	.	.	8A#\	.	.	.	.	.	.	.	16ff#\	.
.	.	.	.	.	.	.	.	.	.	.	.	.	16ddd\JJ	.
8B\	.	.	.	.	8B\	.	.	.	.	.	.	.	16ddd\LL	.
.	.	.	.	.	.	.	.	.	.	.	.	.	16bb\	.
8BB\J	.	.	.	.	8BB\J	.	.	.	.	.	.	.	16ff#\	.
.	.	.	.	.	.	.	.	.	.	.	.	.	16ddd\JJ	.
8A#\L	.	2r	.	.	8A#\L	.	.	.	.	.	.	.	16ccc#\LL	.
.	.	.	.	.	.	.	.	.	.	.	.	.	16aa#\	.
8G\	.	.	.	.	8G\	.	.	.	.	.	.	.	16ff#\	.
.	.	.	.	.	.	.	.	.	.	.	.	.	16ccc#\JJ	.
8F#\	.	.	.	.	8F#\	.	.	.	.	.	.	.	16ccc#\LL	.
.	.	.	.	.	.	.	.	.	.	.	.	.	16aa#\	.
8A#\J	.	.	.	.	8A#\J	.	.	.	.	.	.	.	16ff#\	.
.	.	.	.	.	.	.	.	.	.	.	.	.	16ccc#\JJ	.
=23	=23	=23	=23	=23	=23	=23	=23	=23	=23	=23	=23	=23	=23	=23
4B\	.	2r	1r	.	4B\	.	1r	.	1r	.	1r	.	16ddd\LL	.
.	.	.	.	.	.	.	.	.	.	.	.	.	16fff#\	.
.	.	.	.	.	.	.	.	.	.	.	.	.	16eee\	.
.	.	.	.	.	.	.	.	.	.	.	.	.	16fff#\JJ	.
8r	.	.	.	.	8r	.	.	.	.	.	.	.	16ddd\LL	.
.	.	.	.	.	.	.	.	.	.	.	.	.	16eee\	.
8A\	.	.	.	.	8A\	.	.	.	.	.	.	.	16ccc#\	.
.	.	.	.	.	.	.	.	.	.	.	.	.	16ddd\JJ	.
8G\L	.	2r	.	.	8Gn\L	.	.	.	.	.	.	.	4bb\	.
8F#\	.	.	.	.	8F#\	.	.	.	.	.	.	.	.	.
8E\	.	.	.	.	8E\	.	.	.	.	.	.	.	8r	.
8D\J	.	.	.	.	8D\J	.	.	.	.	.	.	.	8ff#\ 8ddd\	.
=24	=24	=24	=24	=24	=24	=24	=24	=24	=24	=24	=24	=24	=24	=24
4A\	.	2r	1r	.	4A\	.	1r	.	1r	.	1r	.	8ee\ 8ccc#\L	.
.	.	.	.	.	.	.	.	.	.	.	.	.	8dd\ 8bb\	.
4r	.	.	.	.	4r	.	.	.	.	.	.	.	8cc#\ 8aa\	.
.	.	.	.	.	.	.	.	.	.	.	.	.	8b\ 8gg\J	.
8d\L	.	2r	.	.	8d\L	.	.	.	.	.	.	.	4a\ 4ff#\	.
8c#\	.	.	.	.	8c#\	.	.	.	.	.	.	.	.	.
8d\	.	.	.	.	8d\	.	.	.	.	.	.	.	8r	.
8D\J	.	.	.	.	8D\J	.	.	.	.	.	.	.	8dd\ 8bb\	.
=25	=25	=25	=25	=25	=25	=25	=25	=25	=25	=25	=25	=25	=25	=25
4A\	.	2r	1r	.	4A\	.	1r	.	1r	.	1r	.	8cc#\ 8aa\L	.
.	.	.	.	.	.	.	.	.	.	.	.	.	8b\ 8gg\	.
4r	.	.	.	.	4r	.	.	.	.	.	.	.	8a\ 8ff#\	.
.	.	.	.	.	.	.	.	.	.	.	.	.	8g\ 8ee\J	.
8d\L	.	2r	.	.	8d\L	.	.	.	.	.	.	.	4f#/ 4dd/	.
8c#\	.	.	.	.	8c#\	.	.	.	.	.	.	.	.	.
8d\	.	.	.	.	8d\	.	.	.	.	.	.	.	8r	.
8F#\J	.	.	.	.	8F#\J	.	.	.	.	.	.	.	8cc#\ 8aa\	.
=26	=26	=26	=26	=26	=26	=26	=26	=26	=26	=26	=26	=26	=26	=26
4G\	.	2r	1r	.	4G\	.	1r	.	1r	.	1r	.	8b\ 8gg\L	.
.	.	.	.	.	.	.	.	.	.	.	.	.	8a\ 8ff#\	.
4r	.	.	.	.	4r	.	.	.	.	.	.	.	8g\ 8ee\	.
.	.	.	.	.	.	.	.	.	.	.	.	.	8f#\ 8dd\J	.
*	*	*	*	*	*	*	*	*	*	*	*	*	*^	*
8A\L	.	2r	.	.	8A\L	.	.	.	.	.	.	.	8cc#/L	8e\	.
8G\	.	.	.	.	8G\	.	.	.	.	.	.	.	8a/	8r	.
8F#\	.	.	.	.	8F#\	.	.	.	.	.	.	.	8dd/	8f#\	.
8D\J	.	.	.	.	8D\J	.	.	.	.	.	.	.	8ccn/J	8r	.
=27	=27	=27	=27	=27	=27	=27	=27	=27	=27	=27	=27	=27	=27	=27	=27
4G\	.	2r	1r	.	4G\	.	1r	.	1r	.	1r	.	8b/L	8g\	.
.	.	.	.	.	.	.	.	.	.	.	.	.	8b/	8r	.
8r	.	.	.	.	8r	.	.	.	.	.	.	.	8ee/	8g#\	.
8E\	.	.	.	.	8E\	.	.	.	.	.	.	.	8dd/J	8r	.
4A\	.	2r	.	.	4A\	.	.	.	.	.	.	.	8cc#/L	8a\	.
.	.	.	.	.	.	.	.	.	.	.	.	.	8ee/	8r	.
8r	.	.	.	.	8r	.	.	.	.	.	.	.	8aa/	8cc#\	.
8F#\	.	.	.	.	8F#\	.	.	.	.	.	.	.	8ggn/J	8r	.
=28	=28	=28	=28	=28	=28	=28	=28	=28	=28	=28	=28	=28	=28	=28	=28
4B\	.	2r	1r	.	4B\	.	1r	.	1r	.	1r	.	8ff#/L	8dd\	.
.	.	.	.	.	.	.	.	.	.	.	.	.	8ff#/	8r	.
8r	.	.	.	.	8r	.	.	.	.	.	.	.	8bb/	8dd#\	.
8B\	.	.	.	.	8B\	.	.	.	.	.	.	.	8aa/J	8r	.
4E\	.	2r	.	.	4E\	.	.	.	.	.	.	.	2ryy	4ee\ 4gg#\	.
8r	.	.	.	.	8r	.	.	.	.	.	.	.	.	8aa\L	.
8AA/	.	.	.	.	8AA/	.	.	.	.	.	.	.	.	8cc#\J	.
*	*	*	*	*	*	*	*	*	*	*	*	*	*v	*v	*
=29	=29	=29	=29	=29	=29	=29	=29	=29	=29	=29	=29	=29	=29	=29
4D\	.	2r	2r	.	4D\	.	2r	.	2r	.	2r	.	8b\L	.
.	.	.	.	.	.	.	.	.	.	.	.	.	8aa\	.
4E\	.	.	.	.	4E\	.	.	.	.	.	.	.	8b\	.
.	.	.	.	.	.	.	.	.	.	.	.	.	8gg#\J	.
16AA/LL	f	2r	16AA/LL	f	16AA/LL	f	8c#\	.	8e/	f	8a/	f	8a/	f
16AA/	.	.	16AA/	.	16AA/	.	.	.	.	.	.	.	.	.
16AA/	.	.	16AA/	.	16AA/	.	8r	.	8r	.	8r	.	8r	.
16AA/JJ	.	.	16AA/JJ	.	16AA/JJ	.	.	.	.	.	.	.	.	.
16AA/LL	.	.	16AA/LL	.	16AA/LL	.	8e\	.	8a/	.	8cc#\	.	8cc#\	.
16AA/	.	.	16AA/	.	16AA/	.	.	.	.	.	.	.	.	.
16AA/	.	.	16AA/	.	16AA/	.	8r	.	8r	.	8r	.	8r	.
16AA/JJ	.	.	16AA/JJ	.	16AA/JJ	.	.	.	.	.	.	.	.	.
=30	=30	=30	=30	=30	=30	=30	=30	=30	=30	=30	=30	=30	=30	=30
16AA/LL	.	2r	16AA/LL	.	16AA/LL	.	8a\	.	8cc#\	.	8ee\	.	8ee\	.
16AA/	.	.	16AA/	.	16AA/	.	.	.	.	.	.	.	.	.
16AA/	.	.	16AA/	.	16AA/	.	8r	.	8r	.	8r	.	8r	.
16AA/JJ	.	.	16AA/JJ	.	16AA/JJ	.	.	.	.	.	.	.	.	.
16AA/LL	.	.	16AA/LL	.	16AA/LL	.	8c#\	.	8e/	.	8a/	.	8a/	.
16AA/	.	.	16AA/	.	16AA/	.	.	.	.	.	.	.	.	.
16AA/	.	.	16AA/	.	16AA/	.	8r	.	8r	.	8r	.	8r	.
16AA/JJ	.	.	16AA/JJ	.	16AA/JJ	.	.	.	.	.	.	.	.	.
16AA/LL	.	2r	16AA/LL	.	16AA/LL	.	8e\	.	8a/	.	8cc#\	.	8cc#\	.
16AA/	.	.	16AA/	.	16AA/	.	.	.	.	.	.	.	.	.
16AA/	.	.	16AA/	.	16AA/	.	8r	.	8r	.	8r	.	8r	.
16AA/JJ	.	.	16AA/JJ	.	16AA/JJ	.	.	.	.	.	.	.	.	.
16AA/LL	.	.	16AA/LL	.	16AA/LL	.	8a\	.	8cc#\	.	8ee\	.	8ee\	.
16AA/	.	.	16AA/	.	16AA/	.	.	.	.	.	.	.	.	.
16AA/	.	.	16AA/	.	16AA/	.	8r	.	8r	.	8r	.	8r	.
16AA/JJ	.	.	16AA/JJ	.	16AA/JJ	.	.	.	.	.	.	.	.	.
=31	=31	=31	=31	=31	=31	=31	=31	=31	=31	=31	=31	=31	=31	=31
16AA/LL	.	2r	16AA/LL	.	16AA/LL	.	8cc#\	.	8ee\	.	8aa\	.	8aa\	.
16AA/	.	.	16AA/	.	16AA/	.	.	.	.	.	.	.	.	.
16AA/	.	.	16AA/	.	16AA/	.	8r	.	8r	.	8r	.	8r	.
16AA/JJ	.	.	16AA/JJ	.	16AA/JJ	.	.	.	.	.	.	.	.	.
16AA/LL	.	.	16AA/LL	.	16AA/LL	.	8a\	.	8cc#\	.	8ee\	.	8ee\	.
16AA/	.	.	16AA/	.	16AA/	.	.	.	.	.	.	.	.	.
16AA/	.	.	16AA/	.	16AA/	.	8r	.	8r	.	8r	.	8r	.
16AA/JJ	.	.	16AA/JJ	.	16AA/JJ	.	.	.	.	.	.	.	.	.
16AA/LL	.	2r	16AA/LL	.	16AA/LL	.	8c#\	.	8ee\	.	8aa\	.	8aa\	.
16AA/	.	.	16AA/	.	16AA/	.	.	.	.	.	.	.	.	.
16AA/	.	.	16AA/	.	16AA/	.	8r	.	8r	.	8r	.	8r	.
16AA/JJ	.	.	16AA/JJ	.	16AA/JJ	.	.	.	.	.	.	.	.	.
16AA/LL	.	.	16AA/LL	.	16AA/LL	.	8e\	.	8aa\	.	8ccc#\	.	8ccc#\	.
16AA/	.	.	16AA/	.	16AA/	.	.	.	.	.	.	.	.	.
16AA/	.	.	16AA/	.	16AA/	.	8r	.	8r	.	8r	.	8r	.
16AA/JJ	.	.	16AA/JJ	.	16AA/JJ	.	.	.	.	.	.	.	.	.
=32	=32	=32	=32	=32	=32	=32	=32	=32	=32	=32	=32	=32	=32	=32
16AA/LL	.	2r	16AA/LL	.	16AA/LL	.	8cc#\	.	8aa\	.	8eee\	.	8eee\	.
16AA/	.	.	16AA/	.	16AA/	.	.	.	.	.	.	.	.	.
16AA/	.	.	16AA/	.	16AA/	.	8r	.	8r	.	8r	.	8r	.
16AA/JJ	.	.	16AA/JJ	.	16AA/JJ	.	.	.	.	.	.	.	.	.
16AA/LL	.	.	16AA/LL	.	16AA/LL	.	8a\	.	8cc#\	.	8ee\	.	8ee\	.
16AA/	.	.	16AA/	.	16AA/	.	.	.	.	.	.	.	.	.
16AA/	.	.	16AA/	.	16AA/	.	8r	.	8r	.	8r	.	8r	.
16AA/JJ	.	.	16AA/JJ	.	16AA/JJ	.	.	.	.	.	.	.	.	.
8C#/	.	2r	8C#/	.	8C#/	.	8a\	.	16ee\LL	.	16aa\LL	.	16aa\LL	.
.	.	.	.	.	.	.	.	.	16ee\	.	16aa\	.	16aa\	.
8r	.	.	8r	.	8r	.	8r	.	16ee\	.	16aa\	.	16aa\	.
.	.	.	.	.	.	.	.	.	16ee\JJ	.	16aa\JJ	.	16aa\JJ	.
8c#\	.	.	8c#\	.	8c#\	.	8a\	.	16ee\LL	.	16aa\LL	.	16aa\LL	.
.	.	.	.	.	.	.	.	.	16ee\	.	16aa\	.	16aa\	.
8r	.	.	8r	.	8r	.	8r	.	16ee\	.	16aa\	.	16aa\	.
.	.	.	.	.	.	.	.	.	16ee\JJ	.	16aa\JJ	.	16aa\JJ	.
=33	=33	=33	=33	=33	=33	=33	=33	=33	=33	=33	=33	=33	=33	=33
16B\LL	.	2r	16B\LL	.	16B\LL	.	16dd\LL	.	8ff#\	.	8aa\	.	8aa\	.
16B\	.	.	16B\	.	16B\	.	16dd\	.	.	.	.	.	.	.
16B\	.	.	16B\	.	16B\	.	16dd\	.	8r	.	8r	.	8r	.
16B\JJ	.	.	16B\JJ	.	16B\JJ	.	16dd\JJ	.	.	.	.	.	.	.
16B\LL	.	.	16B\LL	.	16B\LL	.	16dd\LL	.	8aa\	.	8ddd\	.	8ddd\	.
16B\	.	.	16B\	.	16B\	.	16dd\	.	.	.	.	.	.	.
16B\	.	.	16B\	.	16B\	.	16dd\	.	8r	.	8r	.	8r	.
16B\JJ	.	.	16B\JJ	.	16B\JJ	.	16dd\JJ	.	.	.	.	.	.	.
8B\	.	2r	8B\	.	8B\	.	8b\	.	16dd\LL	.	16gg#\LL	.	16gg#\LL	.
.	.	.	.	.	.	.	.	.	16dd\	.	16gg#\	.	16gg#\	.
8r	.	.	8r	.	8r	.	8r	.	16dd\	.	16gg#\	.	16gg#\	.
.	.	.	.	.	.	.	.	.	16dd\JJ	.	16gg#\JJ	.	16gg#\JJ	.
8BB/	.	.	8BB/	.	8BB/	.	8b\	.	16dd\LL	.	16gg#\LL	.	16gg#\LL	.
.	.	.	.	.	.	.	.	.	16dd\	.	16gg#\	.	16gg#\	.
8r	.	.	8r	.	8r	.	8r	.	16dd\	.	16gg#\	.	16gg#\	.
.	.	.	.	.	.	.	.	.	16dd\JJ	.	16gg#\JJ	.	16gg#\JJ	.
=34	=34	=34	=34	=34	=34	=34	=34	=34	=34	=34	=34	=34	=34	=34
16A\LL	.	2r	16A\LL	.	16A\LL	.	16cc#\LL	.	8ee\	.	8gg#\	.	8gg#\	.
16A\	.	.	16A\	.	16A\	.	16cc#\	.	.	.	.	.	.	.
16A\	.	.	16A\	.	16A\	.	16cc#\	.	8r	.	8r	.	8r	.
16A\JJ	.	.	16A\JJ	.	16A\JJ	.	16cc#\JJ	.	.	.	.	.	.	.
16A\LL	.	.	16A\LL	.	16A\LL	.	16cc#\LL	.	8gg\	.	8ccc#\	.	8ccc#\	.
16A\	.	.	16A\	.	16A\	.	16cc#\	.	.	.	.	.	.	.
16A\	.	.	16A\	.	16A\	.	16cc#\	.	8r	.	8r	.	8r	.
16A\JJ	.	.	16A\JJ	.	16A\JJ	.	16cc#\JJ	.	.	.	.	.	.	.
8A\	.	2r	8A\	.	8A\	.	8a\	.	16cc#\LL	.	16ff#\LL	.	16ff#\LL	.
.	.	.	.	.	.	.	.	.	16cc#\	.	16ff#\	.	16ff#\	.
8r	.	.	8r	.	8r	.	8r	.	16cc#\	.	16ff#\	.	16ff#\	.
.	.	.	.	.	.	.	.	.	16cc#\JJ	.	16ff#\JJ	.	16ff#\JJ	.
8AA/	.	.	8AA/	.	8AA/	.	8a\	.	16cc#\LL	.	16ff#\LL	.	16ff#\LL	.
.	.	.	.	.	.	.	.	.	16cc#\	.	16ff#\	.	16ff#\	.
8r	.	.	8r	.	8r	.	8r	.	16cc#\	.	16ff#\	.	16ff#\	.
.	.	.	.	.	.	.	.	.	16cc#\JJ	.	16ff#\JJ	.	16ff#\JJ	.
=35	=35	=35	=35	=35	=35	=35	=35	=35	=35	=35	=35	=35	=35	=35
16G#\LL	.	2r	16G#\LL	.	16G#\LL	.	16b\LL	.	8dd\	.	8ff#\	.	8ff#\	.
16G#\	.	.	16G#\	.	16G#\	.	16b\	.	.	.	.	.	.	.
16G#\	.	.	16G#\	.	16G#\	.	16b\	.	8r	.	8r	.	8r	.
16G#\JJ	.	.	16G#\JJ	.	16G#\JJ	.	16b\JJ	.	.	.	.	.	.	.
16G#\LL	.	.	16G#\LL	.	16G#\LL	.	16b\LL	.	8ff#\	.	8bb\	.	8bb\	.
16G#\	.	.	16G#\	.	16G#\	.	16b\	.	.	.	.	.	.	.
16G#\	.	.	16G#\	.	16G#\	.	16b\	.	8r	.	8r	.	8r	.
16G#\JJ	.	.	16G#\JJ	.	16G#\JJ	.	16b\JJ	.	.	.	.	.	.	.
8G#\	.	2r	8G#\	.	8G#\	.	8g#\	.	16b\LL	.	16ee\LL	.	16ee\LL	.
.	.	.	.	.	.	.	.	.	16b\	.	16ee\	.	16ee\	.
8r	.	.	8r	.	8r	.	8r	.	16b\	.	16ee\	.	16ee\	.
.	.	.	.	.	.	.	.	.	16b\JJ	.	16ee\JJ	.	16ee\JJ	.
8GG#/	.	.	8GG#/	.	8GG#/	.	8g#\	.	16b\LL	.	16ee\LL	.	16ee\LL	.
.	.	.	.	.	.	.	.	.	16b\	.	16ee\	.	16ee\	.
8r	.	.	8r	.	8r	.	8r	.	16b\	.	16ee\	.	16ee\	.
.	.	.	.	.	.	.	.	.	16b\JJ	.	16ee\JJ	.	16ee\JJ	.
=36	=36	=36	=36	=36	=36	=36	=36	=36	=36	=36	=36	=36	=36	=36
16A\LL	.	2r	16A\LL	.	16A\LL	.	16a\LL	.	8cc#\	.	8ee\	.	8ee\	.
16A\	.	.	16A\	.	16A\	.	16a\	.	.	.	.	.	.	.
16A\	.	.	16A\	.	16A\	.	16a\	.	8r	.	8r	.	8r	.
16A\JJ	.	.	16A\JJ	.	16A\JJ	.	16a\JJ	.	.	.	.	.	.	.
16A\LL	.	.	16A\LL	.	16A\LL	.	16a\LL	.	8ee\	.	8aa\	.	8aa\	.
16A\	.	.	16A\	.	16A\	.	16a\	.	.	.	.	.	.	.
16A\	.	.	16A\	.	16A\	.	16a\	.	8r	.	8r	.	8r	.
16A\JJ	.	.	16A\JJ	.	16A\JJ	.	16a\JJ	.	.	.	.	.	.	.
8A\	.	2r	8A\	.	8A\	.	8e\	.	16cc#\LL	.	16aa\LL	.	16aa\LL	.
.	.	.	.	.	.	.	.	.	16cc#\	.	16aa\	.	16aa\	.
8r	.	.	8r	.	8r	.	8r	.	16cc#\	.	16aa\	.	16aa\	.
.	.	.	.	.	.	.	.	.	16cc#\JJ	.	16aa\JJ	.	16aa\JJ	.
8AA/	.	.	8AA/	.	8AA/	.	8e\	.	16cc#\LL	.	16aa\LL	.	16aa\LL	.
.	.	.	.	.	.	.	.	.	16cc#\	.	16aa\	.	16aa\	.
8r	.	.	8r	.	8r	.	8r	.	16cc#\	.	16aa\	.	16aa\	.
.	.	.	.	.	.	.	.	.	16cc#\JJ	.	16aa\JJ	.	16aa\JJ	.
=37	=37	=37	=37	=37	=37	=37	=37	=37	=37	=37	=37	=37	=37	=37
8E\	.	2r	8E\	.	8E/	.	8e\	.	16b\LL	.	16aa\LL	.	16aa\LL	.
.	.	.	.	.	.	.	.	.	16b\	.	16aa\	.	16aa\	.
8r	.	.	8r	.	8r	.	8r	.	16b\	.	16aa\	.	16aa\	.
.	.	.	.	.	.	.	.	.	16b\JJ	.	16aa\JJ	.	16aa\JJ	.
8EE/	.	.	8EE/	.	8EE/	.	8e\	.	16b\LL	.	16gg#\LL	.	16gg#\LL	.
.	.	.	.	.	.	.	.	.	16b\	.	16gg#\	.	16gg#\	.
8r	.	.	8r	.	8r	.	8r	.	16b\	.	16gg#\	.	16gg#\	.
.	.	.	.	.	.	.	.	.	16b\JJ	.	16gg#\JJ	.	16gg#\JJ	.
*	*	*	*	*	*^	*	*	*	*	*	*	*	*	*
8AA\L	.	2r	4AA/	.	8AA/L	4AA\	.	4e\	.	4cc#\	.	4aa\	.	16aa\LL	.
.	.	.	.	.	.	.	.	.	.	.	.	.	.	16ee\	.
8A\	.	.	.	.	8A/	.	.	.	.	.	.	.	.	16cc#\	.
.	.	.	.	.	.	.	.	.	.	.	.	.	.	16ee\JJ	.
8B\	.	.	4r	.	8B/	4r	.	4r	.	4r	.	4r	.	16dd\LL	.
.	.	.	.	.	.	.	.	.	.	.	.	.	.	16b\	.
8E\J	.	.	.	.	8E/J	.	.	.	.	.	.	.	.	16g#\	.
.	.	.	.	.	.	.	.	.	.	.	.	.	.	16b\JJ	.
*	*	*	*	*	*v	*v	*	*	*	*	*	*	*	*	*
=38	=38	=38	=38	=38	=38	=38	=38	=38	=38	=38	=38	=38	=38	=38
4A\	.	2r	1r	.	4A\	.	1r	.	1r	.	1r	.	16cc#\LL	.
.	.	.	.	.	.	.	.	.	.	.	.	.	16a\	.
.	.	.	.	.	.	.	.	.	.	.	.	.	16cc#\	.
.	.	.	.	.	.	.	.	.	.	.	.	.	16ee\JJ	.
4r	.	.	.	.	4r	.	.	.	.	.	.	.	16aa\LL	.
.	.	.	.	.	.	.	.	.	.	.	.	.	16a\	.
.	.	.	.	.	.	.	.	.	.	.	.	.	16cc#\	.
.	.	.	.	.	.	.	.	.	.	.	.	.	16ee\JJ	.
8AA\L	.	2r	.	.	8AA\L	.	.	.	.	.	.	.	16aa\LL	.
.	.	.	.	.	.	.	.	.	.	.	.	.	16ee\	.
8A\	.	.	.	.	8A\	.	.	.	.	.	.	.	16cc#\	.
.	.	.	.	.	.	.	.	.	.	.	.	.	16ee\JJ	.
8B\	.	.	.	.	8B\	.	.	.	.	.	.	.	16dd\LL	.
.	.	.	.	.	.	.	.	.	.	.	.	.	16b\	.
8E\J	.	.	.	.	8E\J	.	.	.	.	.	.	.	16g#\	.
.	.	.	.	.	.	.	.	.	.	.	.	.	16b\JJ	.
=39	=39	=39	=39	=39	=39	=39	=39	=39	=39	=39	=39	=39	=39	=39
4A\	.	2r	1r	.	4A\	.	1r	.	1r	.	1r	.	16cc#\LL	.
.	.	.	.	.	.	.	.	.	.	.	.	.	16ee\	.
.	.	.	.	.	.	.	.	.	.	.	.	.	16aa\	.
.	.	.	.	.	.	.	.	.	.	.	.	.	16bb\JJ	.
8r	.	.	.	.	8r	.	.	.	.	.	.	.	16ccc#\LL	.
.	.	.	.	.	.	.	.	.	.	.	.	.	16aa\	.
8A\	.	.	.	.	8A\	.	.	.	.	.	.	.	16bb\	.
.	.	.	.	.	.	.	.	.	.	.	.	.	16ccc#\JJ	.
8G#\L	.	2r	.	.	8G#\L	.	.	.	.	.	.	.	16bb\LL	.
.	.	.	.	.	.	.	.	.	.	.	.	.	16ee\	.
8F#\	.	.	.	.	8F#\	.	.	.	.	.	.	.	16bb\	.
.	.	.	.	.	.	.	.	.	.	.	.	.	16ccc#\JJ	.
8G#\	.	.	.	.	8G#\	.	.	.	.	.	.	.	16ddd\LL	.
.	.	.	.	.	.	.	.	.	.	.	.	.	16bb\	.
8E\J	.	.	.	.	8E\J	.	.	.	.	.	.	.	16ccc#\	.
.	.	.	.	.	.	.	.	.	.	.	.	.	16ddd\JJ	.
=40	=40	=40	=40	=40	=40	=40	=40	=40	=40	=40	=40	=40	=40	=40
4A\	.	2r	1r	.	4A\	.	1r	.	1r	.	1r	.	16ccc#\LL	.
.	.	.	.	.	.	.	.	.	.	.	.	.	16ee\	.
.	.	.	.	.	.	.	.	.	.	.	.	.	16ccc#\	.
.	.	.	.	.	.	.	.	.	.	.	.	.	16ddd\JJ	.
8r	.	.	.	.	8r	.	.	.	.	.	.	.	16eee\LL	.
.	.	.	.	.	.	.	.	.	.	.	.	.	16ccc#\	.
8A\	.	.	.	.	8A\	.	.	.	.	.	.	.	16ddd\	.
.	.	.	.	.	.	.	.	.	.	.	.	.	16eee\JJ	.
8B\L	.	2r	.	.	8B\L	.	.	.	.	.	.	.	16ddd\LL	.
.	.	.	.	.	.	.	.	.	.	.	.	.	16ee\	.
8A\	.	.	.	.	8A\	.	.	.	.	.	.	.	16ddd\	.
.	.	.	.	.	.	.	.	.	.	.	.	.	16eee\JJ	.
8B\	.	.	.	.	8B\	.	.	.	.	.	.	.	16fff#\LL	.
.	.	.	.	.	.	.	.	.	.	.	.	.	16ddd\	.
8E\J	.	.	.	.	8E\J	.	.	.	.	.	.	.	16eee\	.
.	.	.	.	.	.	.	.	.	.	.	.	.	16fff#\JJ	.
=41	=41	=41	=41	=41	=41	=41	=41	=41	=41	=41	=41	=41	=41	=41
8c#\L	.	2r	1r	.	8c#\L	.	1r	.	1r	.	1r	.	16eee\LL	.
.	.	.	.	.	.	.	.	.	.	.	.	.	16ccc#\	.
8B\	.	.	.	.	8B\	.	.	.	.	.	.	.	16ddd\	.
.	.	.	.	.	.	.	.	.	.	.	.	.	16eee\JJ	.
8c#\	.	.	.	.	8c#\	.	.	.	.	.	.	.	16ccc#\LL	.
.	.	.	.	.	.	.	.	.	.	.	.	.	16eee\	.
8A\J	.	.	.	.	8A\J	.	.	.	.	.	.	.	16ddd\	.
.	.	.	.	.	.	.	.	.	.	.	.	.	16ccc#\JJ	.
8B\L	.	2r	.	.	8B\L	.	.	.	.	.	.	.	16ddd\LL	.
.	.	.	.	.	.	.	.	.	.	.	.	.	16bb\	.
8A\	.	.	.	.	8A\	.	.	.	.	.	.	.	16ccc#\	.
.	.	.	.	.	.	.	.	.	.	.	.	.	16ddd\JJ	.
8B\	.	.	.	.	8B\	.	.	.	.	.	.	.	16bb\LL	.
.	.	.	.	.	.	.	.	.	.	.	.	.	16ddd\	.
8G#\J	.	.	.	.	8G#\J	.	.	.	.	.	.	.	16ccc#\	.
.	.	.	.	.	.	.	.	.	.	.	.	.	16bb\JJ	.
=42	=42	=42	=42	=42	=42	=42	=42	=42	=42	=42	=42	=42	=42	=42
8A\L	.	2r	1r	.	8A\L	.	1r	.	1r	.	1r	.	16ccc#\LL	.
.	.	.	.	.	.	.	.	.	.	.	.	.	16aa\	.
8G#\	.	.	.	.	8G#\	.	.	.	.	.	.	.	16bb\	.
.	.	.	.	.	.	.	.	.	.	.	.	.	16ccc#\JJ	.
8A\	.	.	.	.	8A\	.	.	.	.	.	.	.	16aa\LL	.
.	.	.	.	.	.	.	.	.	.	.	.	.	16ccc#\	.
8F#\J	.	.	.	.	8F#\J	.	.	.	.	.	.	.	16bb\	.
.	.	.	.	.	.	.	.	.	.	.	.	.	16aa\JJ	.
8G#\L	.	2r	.	.	8G#\L	.	.	.	.	.	.	.	16bb\LL	.
.	.	.	.	.	.	.	.	.	.	.	.	.	16gg#\	.
8F#\	.	.	.	.	8F#\	.	.	.	.	.	.	.	16aa\	.
.	.	.	.	.	.	.	.	.	.	.	.	.	16bb\JJ	.
8G#\	.	.	.	.	8G#\	.	.	.	.	.	.	.	16gg#\LL	.
.	.	.	.	.	.	.	.	.	.	.	.	.	16bb\	.
8E\J	.	.	.	.	8E\J	.	.	.	.	.	.	.	16aa\	.
.	.	.	.	.	.	.	.	.	.	.	.	.	16gg#\JJ	.
=43	=43	=43	=43	=43	=43	=43	=43	=43	=43	=43	=43	=43	=43	=43
8F#\L	.	2r	1r	.	8F#\L	.	1r	.	1r	.	1r	.	16aa\LL	.
.	.	.	.	.	.	.	.	.	.	.	.	.	16ff#\	.
8E#\	.	.	.	.	8E#\	.	.	.	.	.	.	.	16gg#\	.
.	.	.	.	.	.	.	.	.	.	.	.	.	16aa\JJ	.
8F#\	.	.	.	.	8F#\	.	.	.	.	.	.	.	16ff#\LL	.
.	.	.	.	.	.	.	.	.	.	.	.	.	16aa\	.
8BB\J	.	.	.	.	8BB\J	.	.	.	.	.	.	.	16gg#\	.
.	.	.	.	.	.	.	.	.	.	.	.	.	16ff#\JJ	.
8C#\L	.	2r	.	.	8C#\L	.	.	.	.	.	.	.	16ee#\LL	.
.	.	.	.	.	.	.	.	.	.	.	.	.	16cc#\	.
8c#\	.	.	.	.	8c#\	.	.	.	.	.	.	.	16cc#\	.
.	.	.	.	.	.	.	.	.	.	.	.	.	16ee#\JJ	.
8B\	.	.	.	.	8B\	.	.	.	.	.	.	.	16ee#\LL	.
.	.	.	.	.	.	.	.	.	.	.	.	.	16cc#\	.
8c#\J	.	.	.	.	8c#\J	.	.	.	.	.	.	.	16cc#\	.
.	.	.	.	.	.	.	.	.	.	.	.	.	16ff#\JJ	.
=44	=44	=44	=44	=44	=44	=44	=44	=44	=44	=44	=44	=44	=44	=44
8A\L	.	2r	1r	.	8A\L	.	1r	.	1r	.	1r	.	16ff#\LL	.
.	.	.	.	.	.	.	.	.	.	.	.	.	16cc#\	.
8G#\	.	.	.	.	8G#\	.	.	.	.	.	.	.	16cc#\	.
.	.	.	.	.	.	.	.	.	.	.	.	.	16ff#\JJ	.
8A\	.	.	.	.	8A\	.	.	.	.	.	.	.	16ff#\LL	.
.	.	.	.	.	.	.	.	.	.	.	.	.	16cc#\	.
8F#\J	.	.	.	.	8F#\J	.	.	.	.	.	.	.	16cc#\	.
.	.	.	.	.	.	.	.	.	.	.	.	.	16ff#\JJ	.
8B\L	.	2r	.	.	8B\L	.	.	.	.	.	.	.	16ff#\LL	.
.	.	.	.	.	.	.	.	.	.	.	.	.	16dd#\	.
8B\	.	.	.	.	8B\	.	.	.	.	.	.	.	16dd#\	.
.	.	.	.	.	.	.	.	.	.	.	.	.	16ff#\JJ	.
8B\	.	.	.	.	8B\	.	.	.	.	.	.	.	16ff#\LL	.
.	.	.	.	.	.	.	.	.	.	.	.	.	16dd#\	.
8B\J	.	.	.	.	8B\J	.	.	.	.	.	.	.	16dd#\	.
.	.	.	.	.	.	.	.	.	.	.	.	.	16gg#\JJ	.
=45	=45	=45	=45	=45	=45	=45	=45	=45	=45	=45	=45	=45	=45	=45
8B#\L	.	2r	1r	.	8B#\L	.	1r	.	1r	.	1r	.	16gg#\LL	.
.	.	.	.	.	.	.	.	.	.	.	.	.	16dd#\	.
8B#\	.	.	.	.	8B#\	.	.	.	.	.	.	.	16dd#\	.
.	.	.	.	.	.	.	.	.	.	.	.	.	16gg#\JJ	.
8B#\	.	.	.	.	8B#\	.	.	.	.	.	.	.	16gg#\LL	.
.	.	.	.	.	.	.	.	.	.	.	.	.	16dd#\	.
8B#\J	.	.	.	.	8B#\J	.	.	.	.	.	.	.	16dd#\	.
.	.	.	.	.	.	.	.	.	.	.	.	.	16gg#\JJ	.
8c#\L	.	2r	.	.	8c#\L	.	.	.	.	.	.	.	16gg#\LL	.
.	.	.	.	.	.	.	.	.	.	.	.	.	16ee#\	.
8c#\	.	.	.	.	8c#\	.	.	.	.	.	.	.	16ee#\	.
.	.	.	.	.	.	.	.	.	.	.	.	.	16gg#\JJ	.
8c#\	.	.	.	.	8c#\	.	.	.	.	.	.	.	16gg#\LL	.
.	.	.	.	.	.	.	.	.	.	.	.	.	16ee#\	.
8c#\J	.	.	.	.	8c#\J	.	.	.	.	.	.	.	16ee#\	.
.	.	.	.	.	.	.	.	.	.	.	.	.	16aa\JJ	.
=46	=46	=46	=46	=46	=46	=46	=46	=46	=46	=46	=46	=46	=46	=46
8c#\L	.	2r	1r	.	8c#\L	.	1r	.	1r	.	1r	.	16aa\LL	.
.	.	.	.	.	.	.	.	.	.	.	.	.	16ee#\	.
8c#\	.	.	.	.	8c#\	.	.	.	.	.	.	.	16ee#\	.
.	.	.	.	.	.	.	.	.	.	.	.	.	16aa\JJ	.
8c#\	.	.	.	.	8c#\	.	.	.	.	.	.	.	16aa\LL	.
.	.	.	.	.	.	.	.	.	.	.	.	.	16ee#\	.
8c#\J	.	.	.	.	8c#\J	.	.	.	.	.	.	.	16ee#\	.
.	.	.	.	.	.	.	.	.	.	.	.	.	16aa\JJ	.
8d\L	.	2r	.	.	8d\L	.	.	.	.	.	.	.	16aa\LL	.
.	.	.	.	.	.	.	.	.	.	.	.	.	16ff#\	.
8d\	.	.	.	.	8d\	.	.	.	.	.	.	.	16ff#\	.
.	.	.	.	.	.	.	.	.	.	.	.	.	16aa\JJ	.
8d\	.	.	.	.	8d\	.	.	.	.	.	.	.	16aa\LL	.
.	.	.	.	.	.	.	.	.	.	.	.	.	16ff#\	.
8d\J	.	.	.	.	8d\J	.	.	.	.	.	.	.	16ff#\	.
.	.	.	.	.	.	.	.	.	.	.	.	.	16bb\JJ	.
=47	=47	=47	=47	=47	=47	=47	=47	=47	=47	=47	=47	=47	=47	=47
8d\L	.	2r	1r	.	8d\L	.	1r	.	1r	.	1r	.	16bb\LL	.
.	.	.	.	.	.	.	.	.	.	.	.	.	16ff#\	.
8d\	.	.	.	.	8d\	.	.	.	.	.	.	.	16ff#\	.
.	.	.	.	.	.	.	.	.	.	.	.	.	16bb\JJ	.
8d\	.	.	.	.	8d\	.	.	.	.	.	.	.	16bb\LL	.
.	.	.	.	.	.	.	.	.	.	.	.	.	16ff#\	.
8d\J	.	.	.	.	8d\J	.	.	.	.	.	.	.	16ff#\	.
.	.	.	.	.	.	.	.	.	.	.	.	.	16bb\JJ	.
8c#\L	.	2r	.	.	8c#\L	.	.	.	.	.	.	.	16ee#\LL	.
.	.	.	.	.	.	.	.	.	.	.	.	.	16cc#\	.
8B\	.	.	.	.	8B\	.	.	.	.	.	.	.	16cc#\	.
.	.	.	.	.	.	.	.	.	.	.	.	.	16ee#\JJ	.
8A\	.	.	.	.	8A\	.	.	.	.	.	.	.	16ff#\LL	.
.	.	.	.	.	.	.	.	.	.	.	.	.	16a\	.
8F#\J	.	.	.	.	8F#\J	.	.	.	.	.	.	.	16a\	.
.	.	.	.	.	.	.	.	.	.	.	.	.	16ff#\JJ	.
=48	=48	=48	=48	=48	=48	=48	=48	=48	=48	=48	=48	=48	=48	=48
8B\L	.	2r	2r	.	8B\L	.	2r	.	2r	.	2r	.	16ff#\LL	.
.	.	.	.	.	.	.	.	.	.	.	.	.	16b\	.
8G#\	.	.	.	.	8G#\	.	.	.	.	.	.	.	16b\	.
.	.	.	.	.	.	.	.	.	.	.	.	.	16ff#\JJ	.
8c#\	.	.	.	.	8c#\	.	.	.	.	.	.	.	16ee#\LL	.
.	.	.	.	.	.	.	.	.	.	.	.	.	16cc#\	.
8C#\J	.	.	.	.	8C#\J	.	.	.	.	.	.	.	16cc#\	.
.	.	.	.	.	.	.	.	.	.	.	.	.	16ee#\JJ	.
8F#\L	f	2r	8F#\L	.	8F#\L	f	16a\LL	f	16cc#\LL	f	16ff#\LL	f	16ff#\LL	f
.	.	.	.	.	.	.	16a\	.	16cc#\	.	16ff#\	.	16ff#\	.
8A\	.	.	8A\	.	8A\	.	16a\	.	16cc#\	.	16ff#\	.	16ff#\	.
.	.	.	.	.	.	.	16a\JJ	.	16cc#\JJ	.	16ff#\JJ	.	16ff#\JJ	.
8A\	.	.	8A\	.	8A\	.	16a\LL	.	16cc#\LL	.	16ff#\LL	.	16ff#\LL	.
.	.	.	.	.	.	.	16a\	.	16cc#\	.	16ff#\	.	16ff#\	.
8A\J	.	.	8A\J	.	8A\J	.	16a\	.	16cc#\	.	16ff#\	.	16ff#\	.
.	.	.	.	.	.	.	16a\JJ	.	16cc#\JJ	.	16ff#\JJ	.	16ff#\JJ	.
=49	=49	=49	=49	=49	=49	=49	=49	=49	=49	=49	=49	=49	=49	=49
8B\L	.	2r	8B\L	.	8B\L	.	16f#\LL	.	16dd#\LL	.	16ff#\LL	.	16ff#\LL	.
.	.	.	.	.	.	.	16f#\	.	16dd#\	.	16ff#\	.	16ff#\	.
8B\	.	.	8B\	.	8B\	.	16f#\	.	16dd#\	.	16ff#\	.	16ff#\	.
.	.	.	.	.	.	.	16f#\JJ	.	16dd#\JJ	.	16ff#\JJ	.	16ff#\JJ	.
8B\	.	.	8B\	.	8B\	.	16f#\LL	.	16dd#\LL	.	16ff#\LL	.	16ff#\LL	.
.	.	.	.	.	.	.	16f#\	.	16dd#\	.	16ff#\	.	16ff#\	.
8B\J	.	.	8B\J	.	8B\J	.	16f#\	.	16dd#\	.	16ff#\	.	16ff#\	.
.	.	.	.	.	.	.	16f#\JJ	.	16dd#\JJ	.	16ff#\JJ	.	16ff#\JJ	.
8B#\L	.	2r	8B#\L	.	8B#\L	.	16d#\LL	.	16dd#\LL	.	16gg#\LL	.	16gg#\LL	.
.	.	.	.	.	.	.	16d#\	.	16dd#\	.	16gg#\	.	16gg#\	.
8B#\	.	.	8B#\	.	8B#\	.	16d#\	.	16dd#\	.	16gg#\	.	16gg#\	.
.	.	.	.	.	.	.	16d#\JJ	.	16dd#\JJ	.	16gg#\JJ	.	16gg#\JJ	.
8B#\	.	.	8B#\	.	8B#\	.	16d#\LL	.	16dd#\LL	.	16gg#\LL	.	16gg#\LL	.
.	.	.	.	.	.	.	16d#\	.	16dd#\	.	16gg#\	.	16gg#\	.
8B#\J	.	.	8B#\J	.	8B#\J	.	16d#\	.	16dd#\	.	16gg#\	.	16gg#\	.
.	.	.	.	.	.	.	16d#\JJ	.	16dd#\JJ	.	16gg#\JJ	.	16gg#\JJ	.
=50	=50	=50	=50	=50	=50	=50	=50	=50	=50	=50	=50	=50	=50	=50
8c#\L	.	2r	8c#\L	.	8c#\L	.	16g#\LL	.	16ee#\LL	.	16gg#\LL	.	16gg#\LL	.
.	.	.	.	.	.	.	16g#\	.	16ee#\	.	16gg#\	.	16gg#\	.
8c#\	.	.	8c#\	.	8c#\	.	16g#\	.	16ee#\	.	16gg#\	.	16gg#\	.
.	.	.	.	.	.	.	16g#\JJ	.	16ee#\JJ	.	16gg#\JJ	.	16gg#\JJ	.
8c#\	.	.	8c#\	.	8c#\	.	16g#\LL	.	16ee#\LL	.	16gg#\LL	.	16gg#\LL	.
.	.	.	.	.	.	.	16g#\	.	16ee#\	.	16gg#\	.	16gg#\	.
8c#\J	.	.	8c#\J	.	8c#\J	.	16g#\	.	16ee#\	.	16gg#\	.	16gg#\	.
.	.	.	.	.	.	.	16g#\JJ	.	16ee#\JJ	.	16gg#\JJ	.	16gg#\JJ	.
8c#\L	.	2r	8c#\L	.	8c#\L	.	16e#\LL	.	16ee#\LL	.	16aa\LL	.	16aa\LL	.
.	.	.	.	.	.	.	16e#\	.	16ee#\	.	16aa\	.	16aa\	.
8c#\	.	.	8c#\	.	8c#\	.	16e#\	.	16ee#\	.	16aa\	.	16aa\	.
.	.	.	.	.	.	.	16e#\JJ	.	16ee#\JJ	.	16aa\JJ	.	16aa\JJ	.
8c#\	.	.	8c#\	.	8c#\	.	16e#\LL	.	16ee#\LL	.	16aa\LL	.	16aa\LL	.
.	.	.	.	.	.	.	16e#\	.	16ee#\	.	16aa\	.	16aa\	.
8c#\J	.	.	8c#\J	.	8c#\J	.	16e#\	.	16ee#\	.	16aa\	.	16aa\	.
.	.	.	.	.	.	.	16e#\JJ	.	16ee#\JJ	.	16aa\JJ	.	16aa\JJ	.
=51	=51	=51	=51	=51	=51	=51	=51	=51	=51	=51	=51	=51	=51	=51
8d#\L	.	2r	8d#\L	.	8d#\L	.	16a\LL	.	16ff#\LL	.	16aa\LL	.	16aa\LL	.
.	.	.	.	.	.	.	16a\	.	16ff#\	.	16aa\	.	16aa\	.
8d#\	.	.	8d#\	.	8d#\	.	16a\	.	16ff#\	.	16aa\	.	16aa\	.
.	.	.	.	.	.	.	16a\JJ	.	16ff#\JJ	.	16aa\JJ	.	16aa\JJ	.
8d#\	.	.	8d#\	.	8d#\	.	16a\LL	.	16ff#\LL	.	16aa\LL	.	16aa\LL	.
.	.	.	.	.	.	.	16a\	.	16ff#\	.	16aa\	.	16aa\	.
8d#\J	.	.	8d#\J	.	8d#\J	.	16a\	.	16ff#\	.	16aa\	.	16aa\	.
.	.	.	.	.	.	.	16a\JJ	.	16ff#\JJ	.	16aa\JJ	.	16aa\JJ	.
8d#\L	.	2r	8d#\L	.	8d#\L	.	16f#\LL	.	16ff#\LL	.	16bb\LL	.	16bb\LL	.
.	.	.	.	.	.	.	16f#\	.	16ff#\	.	16bb\	.	16bb\	.
8d#\	.	.	8d#\	.	8d#\	.	16f#\	.	16ff#\	.	16bb\	.	16bb\	.
.	.	.	.	.	.	.	16f#\JJ	.	16ff#\JJ	.	16bb\JJ	.	16bb\JJ	.
8d#\	.	.	8d#\	.	8d#\	.	16f#\LL	.	16ff#\LL	.	16bb\LL	.	16bb\LL	.
.	.	.	.	.	.	.	16f#\	.	16ff#\	.	16bb\	.	16bb\	.
8d#\J	.	.	8d#\J	.	8d#\J	.	16f#\	.	16ff#\	.	16bb\	.	16bb\	.
.	.	.	.	.	.	.	16f#\JJ	.	16ff#\JJ	.	16bb\JJ	.	16bb\JJ	.
=52	=52	=52	=52	=52	=52	=52	=52	=52	=52	=52	=52	=52	=52	=52
8E#\L	.	2r	8E#\L	.	8E#\L	.	16e#\LL	.	16gg#\LL	.	16bb\LL	.	16bb\LL	.
.	.	.	.	.	.	.	16e#\	.	16gg#\	.	16bb\	.	16bb\	.
8E#\	.	.	8E#\	.	8E#\	.	16e#\	.	16gg#\	.	16bb\	.	16bb\	.
.	.	.	.	.	.	.	16e#\JJ	.	16gg#\JJ	.	16bb\JJ	.	16bb\JJ	.
8E#\	.	.	8E#\	.	8E#\	.	16e#\LL	.	16gg#\LL	.	16bb\LL	.	16bb\LL	.
.	.	.	.	.	.	.	16e#\	.	16gg#\	.	16bb\	.	16bb\	.
8E#\J	.	.	8E#\J	.	8E#\J	.	16e#\	.	16gg#\	.	16bb\	.	16bb\	.
.	.	.	.	.	.	.	16e#\JJ	.	16gg#\JJ	.	16bb\JJ	.	16bb\JJ	.
8F#\L	.	2r	8F#\L	.	8F#\L	.	16c#\LL	.	16ff#\LL	.	16aa\LL	.	16aa\LL	.
.	.	.	.	.	.	.	16c#\	.	16ff#\	.	16aa\	.	16aa\	.
8F#\	.	.	8F#\	.	8F#\	.	16c#\	.	16ff#\	.	16aa\	.	16aa\	.
.	.	.	.	.	.	.	16c#\JJ	.	16ff#\JJ	.	16aa\JJ	.	16aa\JJ	.
8F#\	.	.	8F#\	.	8F#\	.	16c#\LL	.	16ff#\LL	.	16aa\LL	.	16aa\LL	.
.	.	.	.	.	.	.	16c#\	.	16ff#\	.	16aa\	.	16aa\	.
8F#\J	.	.	8F#\J	.	8F#\J	.	16c#\	.	16ff#\	.	16aa\	.	16aa\	.
.	.	.	.	.	.	.	16c#\JJ	.	16ff#\JJ	.	16aa\JJ	.	16aa\JJ	.
=53	=53	=53	=53	=53	=53	=53	=53	=53	=53	=53	=53	=53	=53	=53
8BB/L	.	2r	8BB/L	.	8BB/L	.	16d\LL	.	16ff#\LL	.	16gg#\LL	.	16gg#\LL	.
.	.	.	.	.	.	.	16d\	.	16ff#\	.	16gg#\	.	16gg#\	.
8BB/	.	.	8BB/	.	8BB/	.	16d\	.	16ff#\	.	16gg#\	.	16gg#\	.
.	.	.	.	.	.	.	16d\JJ	.	16ff#\JJ	.	16gg#\JJ	.	16gg#\JJ	.
8BB/	.	.	8BB/	.	8BB/	.	16d\LL	.	16ff#\LL	.	16gg#\LL	.	16gg#\LL	.
.	.	.	.	.	.	.	16d\	.	16ff#\	.	16gg#\	.	16gg#\	.
8BB/J	.	.	8BB/J	.	8BB/J	.	16d\	.	16ff#\	.	16gg#\	.	16gg#\	.
.	.	.	.	.	.	.	16d\JJ	.	16ff#\JJ	.	16gg#\JJ	.	16gg#\JJ	.
8C#/L	.	2r	8C#/L	.	8C#/L	.	16c#\LL	.	16ee#\LL	.	16gg#\LL	.	16gg#\LL	.
.	.	.	.	.	.	.	16c#\	.	16ee#\	.	16gg#\	.	16gg#\	.
8C#/	.	.	8C#/	.	8C#/	.	16c#\	.	16ee#\	.	16gg#\	.	16gg#\	.
.	.	.	.	.	.	.	16c#\JJ	.	16ee#\JJ	.	16gg#\JJ	.	16gg#\JJ	.
8C#/	.	.	8C#/	.	8C#/	.	16c#\LL	.	16ee#\LL	.	16gg#\LL	.	16gg#\LL	.
.	.	.	.	.	.	.	16c#\	.	16ee#\	.	16gg#\	.	16gg#\	.
8C#/J	.	.	8C#/J	.	8C#/J	.	16c#\	.	16ee#\	.	16gg#\	.	16gg#\	.
.	.	.	.	.	.	.	16c#\JJ	.	16ee#\JJ	.	16gg#\JJ	.	16gg#\JJ	.
=54	=54	=54	=54	=54	=54	=54	=54	=54	=54	=54	=54	=54	=54	=54
4F#\	.	2r	4F#\	.	4F#\	.	4c#\	.	4ff#\	.	4aa\	.	8aa\L	.
.	.	.	.	.	.	.	.	.	.	.	.	.	8cc#\J	.
8r	.	.	4r	.	8r	.	4r	.	4r	.	4r	.	[4ff#\	.
8F#\	.	.	.	.	8F#\	.	.	.	.	.	.	.	.	.
2D#\	.	2r	2r	.	2D#\	.	2r	.	2r	.	2r	.	16ff#\LL]	.
.	.	.	.	.	.	.	.	.	.	.	.	.	16aa\	.
.	.	.	.	.	.	.	.	.	.	.	.	.	16ggn\	.
.	.	.	.	.	.	.	.	.	.	.	.	.	16aa\JJ	.
.	.	.	.	.	.	.	.	.	.	.	.	.	16ff#\LL	.
.	.	.	.	.	.	.	.	.	.	.	.	.	16gg\	.
.	.	.	.	.	.	.	.	.	.	.	.	.	16ee\	.
.	.	.	.	.	.	.	.	.	.	.	.	.	16ff#\JJ	.
=55	=55	=55	=55	=55	=55	=55	=55	=55	=55	=55	=55	=55	=55	=55
2BB/	.	2r	1r	.	2BB/	.	1r	.	1r	.	1r	.	16dd#\LL	.
.	.	.	.	.	.	.	.	.	.	.	.	.	16ff#\	.
.	.	.	.	.	.	.	.	.	.	.	.	.	16ee\	.
.	.	.	.	.	.	.	.	.	.	.	.	.	16ff#\JJ	.
.	.	.	.	.	.	.	.	.	.	.	.	.	16dd#\LL	.
.	.	.	.	.	.	.	.	.	.	.	.	.	16ee\	.
.	.	.	.	.	.	.	.	.	.	.	.	.	16cc#\	.
.	.	.	.	.	.	.	.	.	.	.	.	.	16dd#\JJ	.
2D#\	.	2r	.	.	2D#\	.	.	.	.	.	.	.	16b\LL	.
.	.	.	.	.	.	.	.	.	.	.	.	.	16dd#\	.
.	.	.	.	.	.	.	.	.	.	.	.	.	16ff#\	.
.	.	.	.	.	.	.	.	.	.	.	.	.	16gg\JJ	.
.	.	.	.	.	.	.	.	.	.	.	.	.	16aa\LL	.
.	.	.	.	.	.	.	.	.	.	.	.	.	16ff#\	.
.	.	.	.	.	.	.	.	.	.	.	.	.	16gg\	.
.	.	.	.	.	.	.	.	.	.	.	.	.	16aa\JJ	.
=56	=56	=56	=56	=56	=56	=56	=56	=56	=56	=56	=56	=56	=56	=56
4E\	.	2r	1r	.	4E\	.	1r	.	1r	.	1r	.	8gg\L	.
.	.	.	.	.	.	.	.	.	.	.	.	.	8b\J	.
8r	.	.	.	.	8r	.	.	.	.	.	.	.	[4ee\	.
8G\	.	.	.	.	8G\	.	.	.	.	.	.	.	.	.
2C#/	.	2r	.	.	2C#/	.	.	.	.	.	.	.	16ee\LL]	.
.	.	.	.	.	.	.	.	.	.	.	.	.	16gg\	.
.	.	.	.	.	.	.	.	.	.	.	.	.	16ff#\	.
.	.	.	.	.	.	.	.	.	.	.	.	.	16gg\JJ	.
.	.	.	.	.	.	.	.	.	.	.	.	.	16ee\LL	.
.	.	.	.	.	.	.	.	.	.	.	.	.	16ff#\	.
.	.	.	.	.	.	.	.	.	.	.	.	.	16dd\	.
.	.	.	.	.	.	.	.	.	.	.	.	.	16ee\JJ	.
=57	=57	=57	=57	=57	=57	=57	=57	=57	=57	=57	=57	=57	=57	=57
2AA/	.	2r	1r	.	2AA/	.	1r	.	1r	.	1r	.	16cc#\LL	.
.	.	.	.	.	.	.	.	.	.	.	.	.	16ee\	.
.	.	.	.	.	.	.	.	.	.	.	.	.	16dd\	.
.	.	.	.	.	.	.	.	.	.	.	.	.	16ee\JJ	.
.	.	.	.	.	.	.	.	.	.	.	.	.	16cc#\LL	.
.	.	.	.	.	.	.	.	.	.	.	.	.	16dd\	.
.	.	.	.	.	.	.	.	.	.	.	.	.	16b\	.
.	.	.	.	.	.	.	.	.	.	.	.	.	16cc#\JJ	.
2C#/	.	2r	.	.	2C#/	.	.	.	.	.	.	.	16a\LL	.
.	.	.	.	.	.	.	.	.	.	.	.	.	16cc#\	.
.	.	.	.	.	.	.	.	.	.	.	.	.	16ee\	.
.	.	.	.	.	.	.	.	.	.	.	.	.	16ff#\JJ	.
.	.	.	.	.	.	.	.	.	.	.	.	.	16gg\LL	.
.	.	.	.	.	.	.	.	.	.	.	.	.	16ee\	.
.	.	.	.	.	.	.	.	.	.	.	.	.	16ff#\	.
.	.	.	.	.	.	.	.	.	.	.	.	.	16gg\JJ	.
=58	=58	=58	=58	=58	=58	=58	=58	=58	=58	=58	=58	=58	=58	=58
2D\	.	2r	1r	.	2D\	.	1r	.	1r	.	1r	.	16ff#\LL	.
.	.	.	.	.	.	.	.	.	.	.	.	.	16aa\	.
.	.	.	.	.	.	.	.	.	.	.	.	.	16gg\	.
.	.	.	.	.	.	.	.	.	.	.	.	.	16aa\JJ	.
.	.	.	.	.	.	.	.	.	.	.	.	.	16ff#\LL	.
.	.	.	.	.	.	.	.	.	.	.	.	.	16gg\	.
.	.	.	.	.	.	.	.	.	.	.	.	.	16ee\	.
.	.	.	.	.	.	.	.	.	.	.	.	.	16ff#\JJ	.
4D\	.	2r	.	.	4D\	.	.	.	.	.	.	.	16dd\LL	.
.	.	.	.	.	.	.	.	.	.	.	.	.	16a\	.
.	.	.	.	.	.	.	.	.	.	.	.	.	16b\	.
.	.	.	.	.	.	.	.	.	.	.	.	.	16cc#\JJ	.
4r	.	.	.	.	4r	.	.	.	.	.	.	.	16dd\LL	.
.	.	.	.	.	.	.	.	.	.	.	.	.	16cc#\	.
.	.	.	.	.	.	.	.	.	.	.	.	.	16dd\	.
.	.	.	.	.	.	.	.	.	.	.	.	.	16ee\JJ	.
=59	=59	=59	=59	=59	=59	=59	=59	=59	=59	=59	=59	=59	=59	=59
2r	.	2r	1r	.	2r	.	1r	.	1r	.	1r	.	16ff#\LL	.
.	.	.	.	.	.	.	.	.	.	.	.	.	16ee\	.
.	.	.	.	.	.	.	.	.	.	.	.	.	16ff#\	.
.	.	.	.	.	.	.	.	.	.	.	.	.	16gg\JJ	.
.	.	.	.	.	.	.	.	.	.	.	.	.	16aa\LL	.
.	.	.	.	.	.	.	.	.	.	.	.	.	16gg\	.
.	.	.	.	.	.	.	.	.	.	.	.	.	16aa\	.
.	.	.	.	.	.	.	.	.	.	.	.	.	16bb\JJ	.
8A\L	.	2r	.	.	8A\L	.	.	.	.	.	.	.	16ccc#\LL	.
.	.	.	.	.	.	.	.	.	.	.	.	.	16aa\	.
8G\	.	.	.	.	8G\	.	.	.	.	.	.	.	16bb\	.
.	.	.	.	.	.	.	.	.	.	.	.	.	16ccc#\JJ	.
8F#\	.	.	.	.	8F#\	.	.	.	.	.	.	.	8ddd\L	.
8D\J	.	.	.	.	8D\J	.	.	.	.	.	.	.	8dd\J	.
=60	=60	=60	=60	=60	=60	=60	=60	=60	=60	=60	=60	=60	=60	=60
4A\	.	2r	2r	.	4A\	.	2r	.	2r	.	2r	.	4.ee\	.
4AA/	.	.	.	.	4AA/	.	.	.	.	.	.	.	.	.
.	.	.	.	.	.	.	.	.	.	.	.	.	8dd\	.
4D\	f	2r	4D\	f	4D\	f	16f#\LL	f	16aa\LL	f	16aa\LL	f	16dd\	.
.	.	.	.	.	.	.	16f#\	.	16aa\	.	16aa\	.	16aa\LL	f
.	.	.	.	.	.	.	16f#\	.	16aa\	.	16aa\	.	16aa\	.
.	.	.	.	.	.	.	16f#\JJ	.	16aa\JJ	.	16aa\JJ	.	16aa\JJ	.
16AA/LL	.	.	16AA/LL	.	16AA/LL	.	16c#\LL	.	16aa\LL	.	16aa\LL	.	16aa\LL	.
16AA/	.	.	16AA/	.	16AA/	.	16c#\	.	16aa\	.	16aa\	.	16aa\	.
16AA/	.	.	16AA/	.	16AA/	.	16c#\	.	16aa\	.	16aa\	.	16aa\	.
16AA/JJ	.	.	16AA/JJ	.	16AA/JJ	.	16c#\JJ	.	16aa\JJ	.	16aa\JJ	.	16aa\JJ	.
=61	=61	=61	=61	=61	=61	=61	=61	=61	=61	=61	=61	=61	=61	=61
16BB/LL	.	2r	16BB/LL	.	16BB/LL	.	16d\LL	.	16aa\LL	.	16aa\LL	.	16aa\LL	.
16BB/	.	.	16BB/	.	16BB/	.	16d\	.	16aa\	.	16aa\	.	16aa\	.
16BB/	.	.	16BB/	.	16BB/	.	16d\	.	16aa\	.	16aa\	.	16aa\	.
16BB/JJ	.	.	16BB/JJ	.	16BB/JJ	.	16d\JJ	.	16aa\JJ	.	16aa\JJ	.	16aa\JJ	.
16C#/LL	.	.	16C#/LL	.	16C#/LL	.	16e\LL	.	16aa\LL	.	16aa\LL	.	16aa\LL	.
16C#/	.	.	16C#/	.	16C#/	.	16e\	.	16aa\	.	16aa\	.	16aa\	.
16C#/	.	.	16C#/	.	16C#/	.	16e\	.	16aa\	.	16aa\	.	16aa\	.
16C#/JJ	.	.	16C#/JJ	.	16C#/JJ	.	16e\JJ	.	16aa\JJ	.	16aa\JJ	.	16aa\JJ	.
16D\LL	.	2r	16D\LL	.	16D\LL	.	16f#\LL	.	16aa\LL	.	16aa\LL	.	16aa\LL	.
16D\	.	.	16D\	.	16D\	.	16f#\	.	16aa\	.	16aa\	.	16aa\	.
16D\	.	.	16D\	.	16D\	.	16f#\	.	16aa\	.	16aa\	.	16aa\	.
16D\JJ	.	.	16D\JJ	.	16D\JJ	.	16f#\JJ	.	16aa\JJ	.	16aa\JJ	.	16aa\JJ	.
16F#\LL	.	.	16F#\LL	.	16F#\LL	.	16a\LL	.	16ff#\LL	.	16ddd\LL	.	16ddd\LL	.
16F#\	.	.	16F#\	.	16F#\	.	16a\	.	16ff#\	.	16ddd\	.	16ddd\	.
16F#\	.	.	16F#\	.	16F#\	.	16a\	.	16ff#\	.	16ddd\	.	16ddd\	.
16F#\JJ	.	.	16F#\JJ	.	16F#\JJ	.	16a\JJ	.	16ff#\JJ	.	16ddd\JJ	.	16ddd\JJ	.
=62	=62	=62	=62	=62	=62	=62	=62	=62	=62	=62	=62	=62	=62	=62
16G\LL	.	2r	16G\LL	.	16G\LL	.	16a\LL	.	16ee\LL	.	16ddd\LL	.	16ddd\LL	.
16G\	.	.	16G\	.	16G\	.	16a\	.	16ee\	.	16ddd\	.	16ddd\	.
16G\	.	.	16G\	.	16G\	.	16a\	.	16ee\	.	16ddd\	.	16ddd\	.
16G\JJ	.	.	16G\JJ	.	16G\JJ	.	16a\JJ	.	16ee\JJ	.	16ddd\JJ	.	16ddd\JJ	.
16A\LL	.	.	16A\LL	.	16A\LL	.	16a\LL	.	16ee\LL	.	16ccc#\LL	.	16ccc#\LL	.
16A\	.	.	16A\	.	16A\	.	16a\	.	16ee\	.	16ccc#\	.	16ccc#\	.
16A\	.	.	16A\	.	16A\	.	16a\	.	16ee\	.	16ccc#\	.	16ccc#\	.
16A\JJ	.	.	16A\JJ	.	16A\JJ	.	16a\JJ	.	16ee\JJ	.	16ccc#\JJ	.	16ccc#\JJ	.
4D\	.	2r	4D\	.	4D\	.	4a\	.	4dd\	.	4ddd\	.	4ddd\	.
16F#\LL	.	.	16F#\LL	.	16F#\LL	.	16A/LL	.	16f#/LL	.	16dd\LL	.	16dd\LL	.
16F#\	.	.	16F#\	.	16F#\	.	16A/	.	16f#/	.	16dd\	.	16dd\	.
16F#\	.	.	16F#\	.	16F#\	.	16A/	.	16f#/	.	16dd\	.	16dd\	.
16F#\JJ	.	.	16F#\JJ	.	16F#\JJ	.	16A/JJ	.	16f#/JJ	.	16dd\JJ	.	16dd\JJ	.
=63	=63	=63	=63	=63	=63	=63	=63	=63	=63	=63	=63	=63	=63	=63
16G\LL	.	2r	16G\LL	.	16G\LL	.	16B/LL	.	16e/LL	.	16dd\LL	.	16dd\LL	.
16G\	.	.	16G\	.	16G\	.	16B/	.	16e/	.	16dd\	.	16dd\	.
16G\	.	.	16G\	.	16G\	.	16B/	.	16e/	.	16dd\	.	16dd\	.
16G\JJ	.	.	16G\JJ	.	16G\JJ	.	16B/JJ	.	16e/JJ	.	16dd\JJ	.	16dd\JJ	.
16A\LL	.	.	16A\LL	.	16A\LL	.	16A/LL	.	16e/LL	.	16cc#\LL	.	16cc#\LL	.
16A\	.	.	16A\	.	16A\	.	16A/	.	16e/	.	16cc#\	.	16cc#\	.
16A\	.	.	16A\	.	16A\	.	16A/	.	16e/	.	16cc#\	.	16cc#\	.
16A\JJ	.	.	16A\JJ	.	16A\JJ	.	16A/JJ	.	16e/JJ	.	16cc#\JJ	.	16cc#\JJ	.
2D;\	.	2r	2D;\	.	2D;\	.	2A;/	.	2f#;/	.	2dd;\	.	2dd;\	.
==	==	==	==	==	==	==	==	==	==	==	==	==	==	==
*-	*-	*-	*-	*-	*-	*-	*-	*-	*-	*-	*-	*-	*-	*-
!!!ENC: Don Anthony
!!!END: 2005/06/10/
!!!ONB: Converted to Humdrum by Craig Sapp 2005/06/26/
